;FLAVOR:Marlin
;TIME:6278
;Filament used: 4.48324m
;Layer height: 0.2
;MINX:48.5
;MINY:72.5
;MINZ:0.2
;MAXX:171.5
;MAXY:147.5
;MAXZ:6
;Generated with Cura_SteamEngine 4.8.0
M140 S60
M105
M190 S60
M104 S200
M105
M109 S200
M82 ;absolute extrusion mode
; Ender 3 Custom Start G-code
G92 E0 ; Reset Extruder
G28 ; Home all axes
G1 Z2.0 F3000 ; Move Z Axis up little to prevent scratching of Heat Bed
G1 X0.1 Y20 Z0.3 F5000.0 ; Move to start position
G1 X0.1 Y200.0 Z0.3 F1500.0 E15 ; Draw the first line
G1 X0.4 Y200.0 Z0.3 F5000.0 ; Move to side a little
G1 X0.4 Y20 Z0.3 F1500.0 E30 ; Draw the second line
G92 E0 ; Reset Extruder
G1 Z2.0 F3000 ; Move Z Axis up little to prevent scratching of Heat Bed
G1 X5 Y20 Z0.3 F5000.0 ; Move over to prevent blob squish
G92 E0
G92 E0
G1 F1500 E-6.5
;LAYER_COUNT:30
;LAYER:0
M107
G0 F6000 X54.728 Y74.871 Z0.2
;TYPE:SKIRT
G1 F1500 E0
G1 F1200 X54.841 Y74.797 E0.00449
G1 X55.263 Y74.534 E0.02103
G1 X55.54 Y74.37 E0.03174
G1 X56.618 Y73.809 E0.07216
G1 X56.762 Y73.744 E0.07741
G1 X57.264 Y73.533 E0.09552
G1 X57.554 Y73.419 E0.10589
G1 X58.69 Y73.042 E0.1457
G1 X58.837 Y73.002 E0.15076
G1 X59.295 Y72.888 E0.16646
G1 X59.604 Y72.818 E0.177
G1 X60.838 Y72.611 E0.21862
G1 X60.966 Y72.597 E0.2229
G1 X61.47 Y72.554 E0.23972
G1 X61.819 Y72.532 E0.25135
G1 X62.214 Y72.513 E0.26451
G1 X62.519 Y72.506 E0.27465
G1 X63.096 Y72.5 E0.29385
G1 X156.793 Y72.5 E3.41022
G1 X157.655 Y72.511 E3.43889
G1 X158.01 Y72.522 E3.45071
G1 X158.139 Y72.528 E3.455
G1 X158.621 Y72.561 E3.47107
G1 X158.963 Y72.592 E3.48249
G1 X160.24 Y72.784 E3.52544
G1 X160.387 Y72.815 E3.53044
G1 X160.88 Y72.931 E3.54728
G1 X161.196 Y73.013 E3.55814
G1 X162.313 Y73.367 E3.59712
G1 X162.443 Y73.416 E3.60174
G1 X162.936 Y73.615 E3.61942
G1 X163.243 Y73.748 E3.63055
G1 X164.385 Y74.324 E3.67309
G1 X164.492 Y74.386 E3.6772
G1 X164.865 Y74.613 E3.69172
G1 X165.138 Y74.786 E3.70247
G1 X166.129 Y75.493 E3.74296
G1 X166.275 Y75.61 E3.74919
G1 X166.648 Y75.923 E3.76538
G1 X166.859 Y76.108 E3.77471
G1 X167.721 Y76.952 E3.81484
G1 X167.829 Y77.07 E3.82016
G1 X168.201 Y77.497 E3.83899
G1 X168.413 Y77.754 E3.85008
G1 X169.121 Y78.715 E3.88978
G1 X169.188 Y78.817 E3.89384
G1 X169.452 Y79.24 E3.91042
G1 X169.623 Y79.528 E3.92156
G1 X170.191 Y80.618 E3.96244
G1 X170.256 Y80.762 E3.96769
G1 X170.467 Y81.264 E3.98581
G1 X170.581 Y81.554 E3.99617
G1 X170.958 Y82.69 E4.03598
G1 X170.998 Y82.837 E4.04105
G1 X171.111 Y83.29 E4.05658
G1 X171.18 Y83.594 E4.06694
G1 X171.384 Y84.796 E4.10749
G1 X171.399 Y84.929 E4.11195
G1 X171.446 Y85.468 E4.12994
G1 X171.468 Y85.816 E4.14154
G1 X171.487 Y86.217 E4.15489
G1 X171.494 Y86.52 E4.16497
G1 X171.5 Y87.097 E4.18416
G1 X171.499 Y132.949 E5.70921
G1 X171.489 Y133.655 E5.73269
G1 X171.478 Y134.01 E5.7445
G1 X171.472 Y134.139 E5.7488
G1 X171.438 Y134.63 E5.76517
G1 X171.407 Y134.969 E5.77649
G1 X171.225 Y136.193 E5.81765
G1 X171.194 Y136.343 E5.82274
G1 X171.069 Y136.88 E5.84108
G1 X170.987 Y137.196 E5.85194
G1 X170.633 Y138.314 E5.89094
G1 X170.587 Y138.436 E5.89528
G1 X170.393 Y138.915 E5.91247
G1 X170.257 Y139.23 E5.92388
G1 X169.693 Y140.355 E5.96574
G1 X169.628 Y140.468 E5.97007
G1 X169.372 Y140.891 E5.98652
G1 X169.202 Y141.158 E5.99705
G1 X168.507 Y142.129 E6.03676
G1 X168.39 Y142.275 E6.04299
G1 X168.079 Y142.645 E6.05906
G1 X167.895 Y142.855 E6.06835
G1 X167.055 Y143.715 E6.10833
G1 X166.935 Y143.825 E6.11375
G1 X166.511 Y144.194 E6.13244
G1 X166.257 Y144.404 E6.1434
G1 X165.257 Y145.14 E6.1847
G1 X165.142 Y145.215 E6.18927
G1 X164.718 Y145.478 E6.20586
G1 X164.438 Y145.643 E6.21667
G1 X163.399 Y146.182 E6.2556
G1 X163.258 Y146.246 E6.26075
G1 X162.736 Y146.467 E6.27961
G1 X162.446 Y146.581 E6.28997
G1 X161.31 Y146.958 E6.32978
G1 X161.163 Y146.998 E6.33485
G1 X160.705 Y147.112 E6.35054
G1 X160.396 Y147.182 E6.36108
G1 X159.162 Y147.389 E6.4027
G1 X159.034 Y147.403 E6.40698
G1 X158.53 Y147.446 E6.42381
G1 X158.181 Y147.468 E6.43544
G1 X157.786 Y147.487 E6.44859
G1 X157.481 Y147.494 E6.45874
G1 X156.904 Y147.5 E6.47793
G1 X63.051 Y147.499 E9.59949
G1 X62.345 Y147.489 E9.62298
G1 X61.99 Y147.478 E9.63479
G1 X61.861 Y147.472 E9.63908
G1 X61.37 Y147.438 E9.65545
G1 X61.031 Y147.407 E9.66678
G1 X59.781 Y147.22 E9.70881
G1 X59.628 Y147.188 E9.71401
G1 X59.124 Y147.07 E9.73123
G1 X58.811 Y146.989 E9.74198
G1 X57.687 Y146.633 E9.7812
G1 X57.557 Y146.584 E9.78582
G1 X57.061 Y146.383 E9.80362
G1 X56.752 Y146.249 E9.81482
G1 X55.607 Y145.671 E9.85748
G1 X55.495 Y145.606 E9.86179
G1 X55.13 Y145.385 E9.87598
G1 X54.86 Y145.214 E9.88661
G1 X53.882 Y144.516 E9.92657
G1 X53.738 Y144.401 E9.9327
G1 X53.292 Y144.025 E9.9521
G1 X53.075 Y143.832 E9.96176
G1 X52.255 Y143.023 E10.00008
G1 X52.152 Y142.91 E10.00516
G1 X51.788 Y142.489 E10.02367
G1 X51.579 Y142.235 E10.03461
G1 X50.85 Y141.241 E10.07561
G1 X50.772 Y141.121 E10.08037
G1 X50.52 Y140.714 E10.09629
G1 X50.359 Y140.441 E10.10683
G1 X49.818 Y139.399 E10.14588
G1 X49.754 Y139.258 E10.15103
G1 X49.533 Y138.736 E10.16989
G1 X49.419 Y138.446 E10.18025
G1 X49.042 Y137.31 E10.22006
G1 X49.002 Y137.163 E10.22513
G1 X48.888 Y136.705 E10.24083
G1 X48.818 Y136.396 E10.25136
G1 X48.611 Y135.162 E10.29298
G1 X48.597 Y135.034 E10.29726
G1 X48.554 Y134.53 E10.31409
G1 X48.532 Y134.181 E10.32572
G1 X48.513 Y133.786 E10.33887
G1 X48.506 Y133.481 E10.34902
G1 X48.5 Y132.904 E10.36821
G1 X48.501 Y87.051 E11.89329
G1 X48.511 Y86.344 E11.9168
G1 X48.522 Y85.985 E11.92875
G1 X48.528 Y85.857 E11.93301
G1 X48.561 Y85.373 E11.94915
G1 X48.592 Y85.033 E11.9605
G1 X48.786 Y83.749 E12.00369
G1 X48.821 Y83.584 E12.0093
G1 X48.936 Y83.099 E12.02588
G1 X49.014 Y82.799 E12.03619
G1 X49.367 Y81.687 E12.075
G1 X49.416 Y81.557 E12.07962
G1 X49.615 Y81.064 E12.0973
G1 X49.748 Y80.757 E12.10843
G1 X50.307 Y79.645 E12.14982
G1 X50.372 Y79.532 E12.15416
G1 X50.628 Y79.109 E12.1706
G1 X50.798 Y78.842 E12.18113
G1 X51.493 Y77.871 E12.22085
G1 X51.61 Y77.725 E12.22707
G1 X51.937 Y77.336 E12.24397
G1 X52.128 Y77.119 E12.25359
G1 X52.986 Y76.248 E12.29425
G1 X53.107 Y76.138 E12.29969
G1 X53.518 Y75.782 E12.31778
G1 X53.766 Y75.578 E12.32846
G1 X54.728 Y74.871 E12.36816
G0 F6000 X54.947 Y75.205
G1 F1200 X55.06 Y75.131 E12.37266
G1 X55.467 Y74.878 E12.3886
G1 X55.744 Y74.714 E12.3993
G1 X56.783 Y74.174 E12.43825
G1 X56.927 Y74.109 E12.4435
G1 X57.41 Y73.905 E12.46094
G1 X57.7 Y73.791 E12.47131
G1 X58.795 Y73.428 E12.50967
G1 X58.942 Y73.388 E12.51474
G1 X59.383 Y73.278 E12.52986
G1 X59.692 Y73.208 E12.5404
G1 X60.881 Y73.009 E12.58049
G1 X61.009 Y72.995 E12.58478
G1 X61.495 Y72.953 E12.601
G1 X61.844 Y72.931 E12.61263
G1 X62.229 Y72.913 E12.62545
G1 X62.524 Y72.906 E12.63527
G1 X63.096 Y72.9 E12.65429
G1 X156.793 Y72.9 E15.77067
G1 X157.649 Y72.911 E15.79914
G1 X157.991 Y72.921 E15.81052
G1 X158.12 Y72.927 E15.81481
G1 X158.585 Y72.959 E15.83032
G1 X158.927 Y72.99 E15.84174
G1 X160.157 Y73.175 E15.88311
G1 X160.304 Y73.206 E15.8881
G1 X160.779 Y73.318 E15.90434
G1 X161.095 Y73.4 E15.91519
G1 X162.172 Y73.741 E15.95277
G1 X162.302 Y73.79 E15.95739
G1 X162.777 Y73.983 E15.97444
G1 X163.084 Y74.116 E15.98557
G1 X164.184 Y74.67 E16.02653
G1 X164.291 Y74.732 E16.03065
G1 X164.651 Y74.95 E16.04465
G1 X164.924 Y75.123 E16.0554
G1 X165.879 Y75.805 E16.09443
G1 X166.025 Y75.922 E16.10065
G1 X166.384 Y76.224 E16.11625
G1 X166.595 Y76.409 E16.12559
G1 X167.426 Y77.222 E16.16425
G1 X167.534 Y77.34 E16.16957
G1 X167.892 Y77.752 E16.18773
G1 X168.104 Y78.009 E16.19881
G1 X168.787 Y78.934 E16.23705
G1 X168.854 Y79.036 E16.24111
G1 X169.108 Y79.444 E16.2571
G1 X169.279 Y79.732 E16.26824
G1 X169.826 Y80.783 E16.30764
G1 X169.891 Y80.927 E16.3129
G1 X170.095 Y81.41 E16.33034
G1 X170.209 Y81.7 E16.3407
G1 X170.572 Y82.795 E16.37907
G1 X170.612 Y82.942 E16.38414
G1 X170.721 Y83.379 E16.39912
G1 X170.79 Y83.683 E16.40948
G1 X170.986 Y84.841 E16.44855
G1 X171.001 Y84.974 E16.453
G1 X171.047 Y85.493 E16.47033
G1 X171.069 Y85.841 E16.48193
G1 X171.087 Y86.233 E16.49498
G1 X171.094 Y86.524 E16.50466
G1 X171.1 Y87.097 E16.52372
G1 X171.099 Y132.943 E18.04856
G1 X171.089 Y133.649 E18.07205
G1 X171.079 Y133.991 E18.08343
G1 X171.073 Y134.12 E18.08772
G1 X171.04 Y134.593 E18.10349
G1 X171.009 Y134.932 E18.11481
G1 X170.834 Y136.112 E18.15449
G1 X170.803 Y136.262 E18.15959
G1 X170.682 Y136.779 E18.17725
G1 X170.6 Y137.095 E18.1881
G1 X170.258 Y138.173 E18.22572
G1 X170.212 Y138.295 E18.23006
G1 X170.026 Y138.757 E18.24662
G1 X169.89 Y139.072 E18.25803
G1 X169.346 Y140.155 E18.29834
G1 X169.281 Y140.268 E18.30268
G1 X169.034 Y140.676 E18.31854
G1 X168.864 Y140.943 E18.32907
G1 X168.195 Y141.879 E18.36733
G1 X168.078 Y142.025 E18.37356
G1 X167.779 Y142.382 E18.38905
G1 X167.595 Y142.592 E18.39833
G1 X166.785 Y143.42 E18.43686
G1 X166.665 Y143.53 E18.44227
G1 X166.256 Y143.885 E18.46028
G1 X166.002 Y144.095 E18.47125
G1 X165.038 Y144.805 E18.51107
G1 X164.923 Y144.88 E18.51563
G1 X164.515 Y145.133 E18.5316
G1 X164.235 Y145.298 E18.54241
G1 X163.234 Y145.818 E18.57993
G1 X163.093 Y145.882 E18.58508
G1 X162.59 Y146.095 E18.60325
G1 X162.3 Y146.209 E18.61361
G1 X161.205 Y146.572 E18.65198
G1 X161.058 Y146.612 E18.65705
G1 X160.617 Y146.722 E18.67216
G1 X160.308 Y146.792 E18.6827
G1 X159.119 Y146.991 E18.7228
G1 X158.991 Y147.005 E18.72708
G1 X158.505 Y147.047 E18.7433
G1 X158.156 Y147.069 E18.75494
G1 X157.771 Y147.087 E18.76775
G1 X157.476 Y147.094 E18.77757
G1 X156.904 Y147.1 E18.7966
G1 X63.057 Y147.099 E21.91796
G1 X62.351 Y147.089 E21.94144
G1 X62.009 Y147.079 E21.95282
G1 X61.88 Y147.073 E21.95712
G1 X61.407 Y147.04 E21.97289
G1 X61.068 Y147.009 E21.98421
G1 X59.863 Y146.828 E22.02474
G1 X59.71 Y146.796 E22.02994
G1 X59.224 Y146.683 E22.04653
G1 X58.911 Y146.602 E22.05729
G1 X57.828 Y146.259 E22.09507
G1 X57.698 Y146.21 E22.09969
G1 X57.22 Y146.016 E22.11685
G1 X56.911 Y145.882 E22.12805
G1 X55.807 Y145.325 E22.16918
G1 X55.695 Y145.26 E22.17349
G1 X55.344 Y145.047 E22.18714
G1 X55.074 Y144.876 E22.19777
G1 X54.131 Y144.204 E22.23629
G1 X53.987 Y144.089 E22.24241
G1 X53.557 Y143.727 E22.26111
G1 X53.34 Y143.534 E22.27077
G1 X52.551 Y142.754 E22.30767
G1 X52.448 Y142.641 E22.31276
G1 X52.097 Y142.235 E22.33061
G1 X51.888 Y141.981 E22.34155
G1 X51.185 Y141.023 E22.38107
G1 X51.107 Y140.903 E22.38583
G1 X50.865 Y140.511 E22.40115
G1 X50.704 Y140.238 E22.41169
G1 X50.182 Y139.234 E22.44933
G1 X50.118 Y139.093 E22.45448
G1 X49.905 Y138.59 E22.47265
G1 X49.791 Y138.3 E22.48301
G1 X49.428 Y137.205 E22.52138
G1 X49.388 Y137.058 E22.52645
G1 X49.278 Y136.617 E22.54156
G1 X49.208 Y136.308 E22.5521
G1 X49.009 Y135.119 E22.5922
G1 X48.995 Y134.991 E22.59648
G1 X48.953 Y134.505 E22.61271
G1 X48.931 Y134.156 E22.62434
G1 X48.913 Y133.771 E22.63716
G1 X48.906 Y133.476 E22.64697
G1 X48.9 Y132.904 E22.666
G1 X48.901 Y87.057 E24.19087
G1 X48.911 Y86.35 E24.21439
G1 X48.928 Y85.876 E24.23017
G1 X48.96 Y85.41 E24.2457
G1 X48.991 Y85.07 E24.25706
G1 X49.178 Y83.832 E24.2987
G1 X49.213 Y83.667 E24.30431
G1 X49.323 Y83.2 E24.32027
G1 X49.401 Y82.9 E24.33058
G1 X49.741 Y81.828 E24.36798
G1 X49.79 Y81.698 E24.3726
G1 X49.983 Y81.223 E24.38966
G1 X50.116 Y80.916 E24.40078
G1 X50.654 Y79.845 E24.44065
G1 X50.719 Y79.732 E24.44498
G1 X50.966 Y79.324 E24.46085
G1 X51.136 Y79.057 E24.47137
G1 X51.805 Y78.121 E24.50964
G1 X51.922 Y77.975 E24.51586
G1 X52.237 Y77.601 E24.53213
G1 X52.428 Y77.384 E24.54174
G1 X53.255 Y76.544 E24.58095
G1 X53.376 Y76.434 E24.58639
G1 X53.772 Y76.091 E24.60381
G1 X54.02 Y75.887 E24.61449
G1 X54.947 Y75.205 E24.65277
G0 F6000 X55.166 Y75.54
G1 F1200 X55.279 Y75.466 E24.65726
G1 X55.67 Y75.222 E24.67259
G1 X55.947 Y75.058 E24.6833
G1 X56.948 Y74.538 E24.72082
G1 X57.092 Y74.473 E24.72607
G1 X57.556 Y74.277 E24.74282
G1 X57.846 Y74.163 E24.75319
G1 X58.9 Y73.814 E24.79012
G1 X59.047 Y73.774 E24.79518
G1 X59.471 Y73.668 E24.80972
G1 X59.78 Y73.598 E24.82026
G1 X60.925 Y73.406 E24.85887
G1 X61.053 Y73.392 E24.86315
G1 X61.52 Y73.352 E24.87874
G1 X61.869 Y73.33 E24.89037
G1 X62.245 Y73.313 E24.90289
G1 X62.528 Y73.306 E24.91231
G1 X63.096 Y73.3 E24.9312
G1 X156.793 Y73.3 E28.04758
G1 X157.643 Y73.311 E28.07585
G1 X157.973 Y73.321 E28.08683
G1 X158.102 Y73.327 E28.09113
G1 X158.549 Y73.358 E28.10603
G1 X158.891 Y73.389 E28.11745
G1 X160.075 Y73.567 E28.15727
G1 X160.222 Y73.598 E28.16227
G1 X160.679 Y73.705 E28.17788
G1 X160.995 Y73.787 E28.18874
G1 X162.031 Y74.115 E28.22488
G1 X162.161 Y74.164 E28.2295
G1 X162.618 Y74.35 E28.24591
G1 X162.925 Y74.483 E28.25704
G1 X163.984 Y75.017 E28.29649
G1 X164.091 Y75.079 E28.3006
G1 X164.437 Y75.288 E28.31405
G1 X164.71 Y75.461 E28.3248
G1 X165.629 Y76.117 E28.36235
G1 X165.775 Y76.234 E28.36857
G1 X166.12 Y76.524 E28.38356
G1 X166.331 Y76.709 E28.3929
G1 X167.131 Y77.492 E28.43013
G1 X167.239 Y77.61 E28.43545
G1 X167.583 Y78.006 E28.4529
G1 X167.795 Y78.263 E28.46398
G1 X168.452 Y79.154 E28.5008
G1 X168.519 Y79.256 E28.50486
G1 X168.765 Y79.649 E28.52028
G1 X168.936 Y79.937 E28.53142
G1 X169.462 Y80.948 E28.56932
G1 X169.527 Y81.092 E28.57458
G1 X169.723 Y81.556 E28.59133
G1 X169.837 Y81.846 E28.60169
G1 X170.186 Y82.9 E28.63862
G1 X170.226 Y83.047 E28.64369
G1 X170.331 Y83.467 E28.65809
G1 X170.4 Y83.771 E28.66846
G1 X170.589 Y84.886 E28.70607
G1 X170.604 Y85.019 E28.71052
G1 X170.648 Y85.518 E28.72718
G1 X170.67 Y85.866 E28.73878
G1 X170.687 Y86.248 E28.7515
G1 X170.694 Y86.528 E28.76081
G1 X170.7 Y87.097 E28.77974
G1 X170.699 Y132.937 E30.30438
G1 X170.689 Y133.643 E30.32787
G1 X170.679 Y133.973 E30.33885
G1 X170.673 Y134.102 E30.34314
G1 X170.642 Y134.557 E30.35831
G1 X170.611 Y134.896 E30.36963
G1 X170.442 Y136.031 E30.4078
G1 X170.411 Y136.181 E30.4129
G1 X170.295 Y136.679 E30.4299
G1 X170.213 Y136.995 E30.44076
G1 X169.884 Y138.032 E30.47695
G1 X169.838 Y138.154 E30.48128
G1 X169.658 Y138.598 E30.49722
G1 X169.522 Y138.913 E30.50863
G1 X169 Y139.956 E30.54742
G1 X168.935 Y140.069 E30.55176
G1 X168.697 Y140.461 E30.56701
G1 X168.527 Y140.728 E30.57754
G1 X167.883 Y141.629 E30.61437
G1 X167.766 Y141.775 E30.6206
G1 X167.478 Y142.118 E30.63549
G1 X167.294 Y142.328 E30.64478
G1 X166.514 Y143.125 E30.68187
G1 X166.394 Y143.235 E30.68728
G1 X166.001 Y143.577 E30.70461
G1 X165.747 Y143.787 E30.71557
G1 X164.82 Y144.47 E30.75387
G1 X164.705 Y144.545 E30.75844
G1 X164.311 Y144.789 E30.77385
G1 X164.031 Y144.954 E30.78466
G1 X163.069 Y145.454 E30.82072
G1 X162.928 Y145.518 E30.82587
G1 X162.444 Y145.723 E30.84335
G1 X162.154 Y145.837 E30.85372
G1 X161.1 Y146.186 E30.89064
G1 X160.953 Y146.226 E30.89571
G1 X160.529 Y146.332 E30.91025
G1 X160.22 Y146.402 E30.92079
G1 X159.075 Y146.594 E30.9594
G1 X158.947 Y146.608 E30.96368
G1 X158.48 Y146.648 E30.97927
G1 X158.131 Y146.67 E30.9909
G1 X157.755 Y146.687 E31.00342
G1 X157.472 Y146.694 E31.01284
G1 X156.904 Y146.7 E31.03173
G1 X63.063 Y146.699 E34.15289
G1 X62.357 Y146.689 E34.17638
G1 X62.027 Y146.679 E34.18736
G1 X61.898 Y146.673 E34.19165
G1 X61.443 Y146.642 E34.20682
G1 X61.104 Y146.611 E34.21815
G1 X59.945 Y146.437 E34.25713
G1 X59.792 Y146.405 E34.26232
G1 X59.325 Y146.296 E34.27827
G1 X59.012 Y146.215 E34.28903
G1 X57.969 Y145.885 E34.32541
G1 X57.839 Y145.836 E34.33003
G1 X57.379 Y145.649 E34.34655
G1 X57.07 Y145.515 E34.35775
G1 X56.008 Y144.979 E34.39732
G1 X55.896 Y144.914 E34.40162
G1 X55.558 Y144.709 E34.41477
G1 X55.288 Y144.538 E34.4254
G1 X54.381 Y143.891 E34.46246
G1 X54.237 Y143.776 E34.46859
G1 X53.823 Y143.428 E34.48658
G1 X53.606 Y143.235 E34.49624
G1 X52.847 Y142.484 E34.53175
G1 X52.744 Y142.371 E34.53683
G1 X52.406 Y141.981 E34.554
G1 X52.197 Y141.727 E34.56494
G1 X51.521 Y140.805 E34.60296
