;FLAVOR:Marlin
;TIME:1148
;Filament used: 0.553062m
;Layer height: 0.16
;MINX:70.501
;MINY:91.37
;MINZ:0.2
;MAXX:142.76
;MAXY:121.959
;MAXZ:4.96
;Generated with Cura_SteamEngine 4.8.0
M140 S60
M105
M190 S60
M104 S200
M105
M109 S200
M82 ;absolute extrusion mode
; Ender 3 Custom Start G-code
G92 E0 ; Reset Extruder
G28 ; Home all axes
G1 Z2.0 F3000 ; Move Z Axis up little to prevent scratching of Heat Bed
G1 X0.1 Y20 Z0.3 F5000.0 ; Move to start position
G1 X0.1 Y200.0 Z0.3 F1500.0 E15 ; Draw the first line
G1 X0.4 Y200.0 Z0.3 F5000.0 ; Move to side a little
G1 X0.4 Y20 Z0.3 F1500.0 E30 ; Draw the second line
G92 E0 ; Reset Extruder
G1 Z2.0 F3000 ; Move Z Axis up little to prevent scratching of Heat Bed
G1 X5 Y20 Z0.3 F5000.0 ; Move over to prevent blob squish
G92 E0
G92 E0
G1 F1500 E-6.5
;LAYER_COUNT:32
;LAYER:0
M107
G0 F6000 X74.653 Y93.993 Z0.2
;TYPE:SKIRT
G1 F1500 E0
G1 F1200 X75.393 Y93.417 E0.03119
G1 X76.18 Y92.906 E0.0624
G1 X77.007 Y92.464 E0.09359
G1 X77.869 Y92.095 E0.12477
G1 X78.76 Y91.8 E0.15599
G1 X79.672 Y91.582 E0.18718
G1 X80.599 Y91.442 E0.21836
G1 X81.443 Y91.385 E0.2465
G1 X81.746 Y91.376 E0.25658
G1 X82.073 Y91.371 E0.26746
G1 X131.052 Y91.37 E1.8965
G1 X131.908 Y91.381 E1.92498
G1 X132.844 Y91.435 E1.95616
G1 X133.772 Y91.567 E1.98734
G1 X134.686 Y91.779 E2.01854
G1 X135.578 Y92.068 E2.04973
G1 X136.443 Y92.431 E2.08093
G1 X137.273 Y92.867 E2.11211
G1 X138.064 Y93.372 E2.14333
G1 X138.808 Y93.943 E2.17452
G1 X139.501 Y94.575 E2.20571
G1 X140.138 Y95.263 E2.2369
G1 X140.713 Y96.004 E2.26809
G1 X141.224 Y96.79 E2.29928
G1 X141.666 Y97.618 E2.33049
G1 X142.035 Y98.48 E2.36168
G1 X142.33 Y99.37 E2.39287
G1 X142.548 Y100.282 E2.42405
G1 X142.688 Y101.21 E2.45527
G1 X142.745 Y102.057 E2.4835
G1 X142.755 Y102.397 E2.49482
G1 X142.76 Y102.72 E2.50556
G1 X142.759 Y103.726 E2.53902
G1 X142.749 Y104.433 E2.56254
G1 X142.732 Y104.904 E2.57821
G1 X142.575 Y107.655 E2.66986
G1 X142.501 Y110.29 E2.75754
G1 X142.489 Y111.107 E2.78471
G1 X142.436 Y112.043 E2.81589
G1 X142.303 Y112.972 E2.84711
G1 X142.091 Y113.885 E2.87828
G1 X141.803 Y114.778 E2.90949
G1 X141.439 Y115.642 E2.94067
G1 X141.003 Y116.473 E2.97189
G1 X140.498 Y117.263 E3.00307
G1 X139.928 Y118.007 E3.03424
G1 X139.296 Y118.701 E3.06546
G1 X138.607 Y119.337 E3.09665
G1 X137.867 Y119.913 E3.12784
G1 X137.08 Y120.424 E3.15905
G1 X136.253 Y120.865 E3.19022
G1 X135.391 Y121.235 E3.22142
G1 X134.501 Y121.53 E3.25261
G1 X133.588 Y121.748 E3.28383
G1 X132.661 Y121.887 E3.315
G1 X131.817 Y121.945 E3.34314
G1 X131.514 Y121.954 E3.35322
G1 X131.187 Y121.959 E3.3641
G1 X82.05 Y121.959 E4.9984
G1 X81.352 Y121.949 E5.02162
G1 X80.416 Y121.895 E5.05281
G1 X79.488 Y121.763 E5.08398
G1 X78.574 Y121.551 E5.11519
G1 X77.682 Y121.262 E5.14637
G1 X76.817 Y120.899 E5.17758
G1 X75.987 Y120.463 E5.20876
G1 X75.196 Y119.958 E5.23997
G1 X74.452 Y119.387 E5.27117
G1 X73.759 Y118.755 E5.30236
G1 X73.122 Y118.067 E5.33355
G1 X72.547 Y117.326 E5.36474
G1 X72.036 Y116.54 E5.39592
G1 X71.594 Y115.712 E5.42714
G1 X71.225 Y114.85 E5.45833
G1 X70.93 Y113.96 E5.48951
G1 X70.712 Y113.048 E5.5207
G1 X70.572 Y112.12 E5.55191
G1 X70.515 Y111.265 E5.58041
G1 X70.506 Y110.951 E5.59086
G1 X70.501 Y110.648 E5.60094
G1 X70.501 Y109.559 E5.63716
G1 X70.511 Y108.88 E5.65975
G1 X70.541 Y108.211 E5.68202
G1 X70.686 Y105.629 E5.76803
G1 X70.759 Y103.038 E5.85425
G1 X70.771 Y102.223 E5.88136
G1 X70.825 Y101.286 E5.91257
G1 X70.957 Y100.358 E5.94375
G1 X71.169 Y99.444 E5.97496
G1 X71.458 Y98.552 E6.00614
G1 X71.821 Y97.687 E6.03734
G1 X72.257 Y96.857 E6.06853
G1 X72.762 Y96.067 E6.09971
G1 X73.333 Y95.322 E6.13093
G1 X73.965 Y94.629 E6.16213
G1 X74.653 Y93.993 E6.19329
G0 F6000 X75.042 Y94.189
G1 F1200 X75.778 Y93.636 E6.22391
G1 X76.559 Y93.149 E6.25452
G1 X77.38 Y92.732 E6.28515
G1 X78.233 Y92.387 E6.31575
G1 X79.114 Y92.118 E6.34639
G1 X80.014 Y91.926 E6.377
G1 X80.928 Y91.813 E6.40763
G1 X81.455 Y91.785 E6.42518
G1 X81.758 Y91.776 E6.43526
G1 X82.073 Y91.771 E6.44574
G1 X131.052 Y91.77 E8.07479
G1 X131.902 Y91.781 E8.10306
G1 X132.821 Y91.834 E8.13368
G1 X133.732 Y91.967 E8.1643
G1 X134.628 Y92.178 E8.19492
G1 X135.502 Y92.466 E8.22552
G1 X136.349 Y92.829 E8.25617
G1 X137.16 Y93.264 E8.28678
G1 X137.93 Y93.768 E8.31739
G1 X138.654 Y94.337 E8.34802
G1 X139.326 Y94.967 E8.37865
G1 X139.941 Y95.652 E8.40927
G1 X140.494 Y96.388 E8.43989
G1 X140.981 Y97.169 E8.4705
G1 X141.398 Y97.99 E8.50113
G1 X141.743 Y98.844 E8.53177
G1 X142.012 Y99.724 E8.56237
G1 X142.204 Y100.625 E8.59301
G1 X142.317 Y101.538 E8.62361
G1 X142.345 Y102.068 E8.64126
G1 X142.355 Y102.408 E8.65258
G1 X142.36 Y102.72 E8.66295
G1 X142.359 Y103.72 E8.69621
G1 X142.349 Y104.427 E8.71973
G1 X142.333 Y104.881 E8.73484
G1 X142.175 Y107.655 E8.82725
G1 X142.101 Y110.274 E8.9144
G1 X142.089 Y111.101 E8.94191
G1 X142.036 Y112.02 E8.97252
G1 X141.903 Y112.931 E9.00314
G1 X141.692 Y113.828 E9.03379
G1 X141.404 Y114.702 E9.0644
G1 X141.041 Y115.548 E9.09502
G1 X140.606 Y116.359 E9.12563
G1 X140.102 Y117.13 E9.15626
G1 X139.533 Y117.854 E9.18689
G1 X138.904 Y118.526 E9.21751
G1 X138.219 Y119.141 E9.24812
G1 X137.482 Y119.694 E9.27877
G1 X136.701 Y120.181 E9.30938
G1 X135.881 Y120.598 E9.33998
G1 X135.027 Y120.943 E9.37061
G1 X134.146 Y121.212 E9.40125
G1 X133.246 Y121.404 E9.43186
G1 X132.332 Y121.516 E9.46249
G1 X131.805 Y121.545 E9.48004
G1 X131.502 Y121.554 E9.49012
G1 X131.187 Y121.559 E9.5006
G1 X82.056 Y121.559 E11.13471
G1 X81.358 Y121.549 E11.15792
G1 X80.439 Y121.496 E11.18854
G1 X79.528 Y121.363 E11.21916
G1 X78.632 Y121.152 E11.24978
G1 X77.758 Y120.864 E11.28038
G1 X76.911 Y120.501 E11.31103
G1 X76.1 Y120.066 E11.34164
G1 X75.33 Y119.562 E11.37225
G1 X74.606 Y118.993 E11.40288
G1 X73.934 Y118.363 E11.43352
G1 X73.319 Y117.678 E11.46413
G1 X72.766 Y116.942 E11.49475
G1 X72.279 Y116.161 E11.52537
G1 X71.862 Y115.34 E11.55599
G1 X71.517 Y114.486 E11.58663
G1 X71.248 Y113.606 E11.61723
G1 X71.056 Y112.705 E11.64787
G1 X70.943 Y111.792 E11.67847
G1 X70.914 Y111.254 E11.69639
G1 X70.905 Y110.94 E11.70684
G1 X70.901 Y110.648 E11.71655
G1 X70.901 Y109.565 E11.75257
G1 X70.911 Y108.886 E11.77516
G1 X70.937 Y108.281 E11.7953
G1 X70.943 Y108.201 E11.79797
G1 X71.086 Y105.662 E11.88255
G1 X71.159 Y103.055 E11.96929
G1 X71.171 Y102.228 E11.9968
G1 X71.224 Y101.309 E12.02742
G1 X71.357 Y100.398 E12.05804
G1 X71.568 Y99.502 E12.08866
G1 X71.856 Y98.628 E12.11926
G1 X72.219 Y97.782 E12.14988
G1 X72.654 Y96.97 E12.18052
G1 X73.158 Y96.2 E12.21113
G1 X73.727 Y95.476 E12.24176
G1 X74.356 Y94.804 E12.27237
G1 X75.042 Y94.189 E12.30301
G0 F6000 X75.429 Y94.39
G1 F1200 X76.161 Y93.861 E12.33305
G1 X76.937 Y93.398 E12.36311
G1 X77.75 Y93.006 E12.39313
G1 X78.595 Y92.687 E12.42317
G1 X79.465 Y92.444 E12.45321
G1 X80.353 Y92.279 E12.48325
G1 X81.467 Y92.184 E12.52044
G1 X81.77 Y92.175 E12.53052
G1 X82.073 Y92.171 E12.5406
G1 X131.052 Y92.17 E14.16965
G1 X131.896 Y92.181 E14.19772
G1 X132.798 Y92.234 E14.22777
G1 X133.691 Y92.366 E14.2578
G1 X134.569 Y92.577 E14.28783
G1 X135.425 Y92.865 E14.31787
G1 X136.252 Y93.227 E14.3479
G1 X137.044 Y93.662 E14.37795
G1 X137.795 Y94.164 E14.408
G1 X138.498 Y94.731 E14.43803
G1 X139.148 Y95.358 E14.46807
G1 X139.74 Y96.04 E14.49811
G1 X140.27 Y96.771 E14.52814
G1 X140.732 Y97.547 E14.55818
G1 X141.125 Y98.36 E14.58821
G1 X141.443 Y99.205 E14.61824
G1 X141.686 Y100.075 E14.64829
G1 X141.851 Y100.963 E14.67833
G1 X141.946 Y102.08 E14.71561
G1 X141.956 Y102.42 E14.72693
G1 X141.96 Y102.72 E14.7369
G1 X141.959 Y103.714 E14.76996
G1 X141.949 Y104.421 E14.79348
G1 X141.933 Y104.858 E14.80803
G1 X141.775 Y107.62 E14.90004
G1 X141.701 Y110.257 E14.98778
G1 X141.689 Y111.096 E15.01569
G1 X141.636 Y111.997 E15.04571
G1 X141.504 Y112.89 E15.07573
G1 X141.293 Y113.769 E15.1058
G1 X141.005 Y114.625 E15.13584
G1 X140.643 Y115.452 E15.16586
G1 X140.209 Y116.244 E15.1959
G1 X139.706 Y116.994 E15.22594
G1 X139.139 Y117.697 E15.25598
G1 X138.513 Y118.347 E15.28599
G1 X137.831 Y118.94 E15.31605
G1 X137.099 Y119.469 E15.34609
G1 X136.324 Y119.932 E15.37612
G1 X135.51 Y120.324 E15.40617
G1 X134.665 Y120.643 E15.43621
G1 X133.795 Y120.886 E15.46625
G1 X132.908 Y121.051 E15.49626
G1 X131.793 Y121.146 E15.53348
G1 X131.49 Y121.155 E15.54356
G1 X131.187 Y121.159 E15.55364
G1 X82.062 Y121.159 E17.18754
G1 X81.364 Y121.149 E17.21076
G1 X80.462 Y121.096 E17.24081
G1 X79.569 Y120.964 E17.27084
G1 X78.691 Y120.753 E17.30087
G1 X77.835 Y120.465 E17.33091
G1 X77.008 Y120.103 E17.36094
G1 X76.216 Y119.668 E17.39099
G1 X75.465 Y119.166 E17.42103
G1 X74.762 Y118.599 E17.45107
G1 X74.112 Y117.972 E17.48111
G1 X73.52 Y117.29 E17.51115
G1 X72.99 Y116.559 E17.54118
G1 X72.528 Y115.783 E17.57122
G1 X72.135 Y114.97 E17.60125
G1 X71.817 Y114.125 E17.63128
G1 X71.574 Y113.255 E17.66132
G1 X71.409 Y112.367 E17.69137
G1 X71.314 Y111.242 E17.72892
G1 X71.305 Y110.928 E17.73936
G1 X71.301 Y110.647 E17.74871
G1 X71.301 Y109.571 E17.7845
G1 X71.311 Y108.892 E17.80709
G1 X71.34 Y108.247 E17.82856
G1 X71.486 Y105.66 E17.91474
G1 X71.559 Y103.073 E18.00082
G1 X71.571 Y102.234 E18.02873
G1 X71.624 Y101.333 E18.05875
G1 X71.756 Y100.439 E18.0888
G1 X71.967 Y99.561 E18.11884
G1 X72.255 Y98.705 E18.14888
G1 X72.617 Y97.878 E18.1789
G1 X73.051 Y97.086 E18.20894
G1 X73.554 Y96.335 E18.239
G1 X74.121 Y95.632 E18.26904
G1 X74.748 Y94.982 E18.29908
G1 X75.429 Y94.39 E18.32909
G1 F1500 E11.82909
;MESH:distancer.STL(2)
G0 F6000 X82.173 Y101.706
G0 X82.174 Y102.785
G0 X131.16 Y103.689
;TYPE:WALL-INNER
G1 F1500 E18.32909
G1 F1200 X82.559 Y103.69 E19.94557
G1 X82.36 Y103.69 E19.95219
G1 X82.36 Y103.491 E19.95647
G1 X82.36 Y102.971 E19.97376
G1 X130.961 Y102.97 E21.59024
G1 X131.16 Y102.97 E21.59686
G1 X131.16 Y103.169 E21.60114
G1 X131.16 Y103.689 E21.61844
G0 F6000 X131.56 Y104.089
;TYPE:WALL-OUTER
G1 F1200 X81.96 Y104.09 E23.26814
G1 X81.96 Y102.571 E23.31866
G1 X131.56 Y102.57 E24.96836
G1 X131.56 Y104.089 E25.01889
G0 F6000 X130.765 Y103.329
;TYPE:SKIN
G1 F1200 X130.923 Y103.205 E25.02503
G1 X130.199 Y103.329 E25.04749
G1 X82.964 Y103.329 E26.49211
G1 X82.558 Y103.489 E26.50546
G0 F6000 X82.56 Y103.465
G1 F1500 E20.00546
;MESH:distancer.STL(1)
G0 F6000 X130.9 Y103.889
G0 X130.901 Y104.954
G0 X130.899 Y108.376
G0 X130.9 Y109.441
G0 X130.9 Y110.359
;TYPE:WALL-INNER
G1 F1500 E26.50546
G1 F1200 X82.299 Y110.36 E28.12193
G1 X82.1 Y110.36 E28.12855
G1 X82.1 Y110.161 E28.13283
G1 X82.1 Y109.641 E28.15013
G1 X130.701 Y109.64 E29.7666
G1 X130.9 Y109.64 E29.77322
G1 X130.9 Y109.839 E29.7775
G1 X130.9 Y110.359 E29.7948
G0 F6000 X131.3 Y110.759
;TYPE:WALL-OUTER
G1 F1200 X81.7 Y110.76 E31.4445
G1 X81.7 Y109.241 E31.49502
G1 X131.3 Y109.24 E33.14473
G1 X131.3 Y110.759 E33.19525
G0 F6000 X130.593 Y109.945
;TYPE:SKIN
G1 F1200 X130.363 Y109.999 E33.20254
G1 X82.563 Y109.999 E34.67677
G1 X82.369 Y110.088 E34.68335
G0 F6000 X82.466 Y110.159
G1 F1500 E28.18335
;MESH:NONMESH
G0 F300 X82.466 Y110.159 Z0.32
G0 F6000 X130.76 Y109.441
G0 X130.759 Y108.376
G0 X130.761 Y104.954
G0 X130.76 Y103.889
G0 X130.76 Y103.553
;TIME_ELAPSED:61.983417
;LAYER:1
M106 S85
;TYPE:WALL-INNER
;MESH:distancer.STL(2)
G1 F1500 E34.68335
G1 F1350 X82.959 Y103.554 E35.63727
G1 X82.76 Y103.554 E35.64124
G1 X82.76 Y103.355 E35.64381
G1 X82.76 Y103.107 E35.64876
G1 X130.561 Y103.106 E36.60268
G1 X130.76 Y103.106 E36.60665
G1 X130.76 Y103.305 E36.60922
G1 X130.76 Y103.553 E36.61417
G0 F7500 X131.16 Y103.953
G1 F1350 X82.559 Y103.954 E37.58406
G1 X82.36 Y103.954 E37.58803
G1 X82.36 Y103.755 E37.5906
G1 X82.36 Y102.707 E37.61151
G1 X130.961 Y102.706 E38.5814
G1 X131.16 Y102.706 E38.58537
G1 X131.16 Y102.905 E38.58794
G1 X131.16 Y103.953 E38.60885
G0 F7500 X131.56 Y104.353
;TYPE:WALL-OUTER
G1 F1350 X81.96 Y104.354 E39.59867
G1 X81.96 Y102.307 E39.63952
G1 X131.56 Y102.306 E40.62935
G1 X131.56 Y104.353 E40.6702
G0 F7500 X131.29 Y104.083
G0 X130.65 Y103.368
G0 X130.363 Y103.216
G0 X130.362 Y103.265
;TYPE:SKIN
G1 F1350 X130.234 Y103.393 E40.67381
G0 F7500 X129.796 Y103.265
G1 F1350 X129.669 Y103.393 E40.67741
G0 F7500 X129.23 Y103.265
G1 F1350 X129.103 Y103.393 E40.68101
G0 F7500 X128.665 Y103.265
G1 F1350 X128.537 Y103.393 E40.68462
G0 F7500 X128.099 Y103.265
G1 F1350 X127.972 Y103.393 E40.68822
G0 F7500 X127.533 Y103.265
G1 F1350 X127.406 Y103.393 E40.69181
G0 F7500 X126.968 Y103.265
G1 F1350 X126.84 Y103.393 E40.69543
G0 F7500 X126.402 Y103.265
G1 F1350 X126.275 Y103.393 E40.69903
G0 F7500 X125.836 Y103.265
G1 F1350 X125.709 Y103.393 E40.70262
G0 F7500 X125.271 Y103.265
G1 F1350 X125.143 Y103.393 E40.70624
G0 F7500 X124.705 Y103.265
G1 F1350 X124.578 Y103.393 E40.70983
G0 F7500 X124.139 Y103.265
G1 F1350 X124.012 Y103.393 E40.71343
G0 F7500 X123.573 Y103.265
G1 F1350 X123.446 Y103.393 E40.71703
G0 F7500 X123.008 Y103.265
G1 F1350 X122.881 Y103.393 E40.72063
G0 F7500 X122.442 Y103.265
G1 F1350 X122.315 Y103.393 E40.72423
G0 F7500 X121.876 Y103.265
G1 F1350 X121.749 Y103.393 E40.72783
G0 F7500 X121.311 Y103.265
G1 F1350 X121.183 Y103.393 E40.73144
G0 F7500 X120.745 Y103.265
G1 F1350 X120.618 Y103.393 E40.73504
G0 F7500 X120.179 Y103.265
G1 F1350 X120.052 Y103.393 E40.73864
G0 F7500 X119.614 Y103.265
G1 F1350 X119.486 Y103.393 E40.74225
G0 F7500 X119.048 Y103.265
G1 F1350 X118.921 Y103.393 E40.74585
G0 F7500 X118.482 Y103.265
G1 F1350 X118.355 Y103.393 E40.74944
G0 F7500 X117.917 Y103.265
G1 F1350 X117.789 Y103.393 E40.75306
G0 F7500 X117.351 Y103.265
G1 F1350 X117.224 Y103.393 E40.75666
G0 F7500 X116.785 Y103.265
G1 F1350 X116.658 Y103.393 E40.76025
G0 F7500 X116.22 Y103.265
G1 F1350 X116.092 Y103.393 E40.76387
G0 F7500 X115.654 Y103.265
G1 F1350 X115.527 Y103.393 E40.76746
G0 F7500 X115.088 Y103.265
G1 F1350 X114.961 Y103.393 E40.77106
G0 F7500 X114.523 Y103.265
G1 F1350 X114.395 Y103.393 E40.77468
G0 F7500 X113.957 Y103.265
G1 F1350 X113.83 Y103.393 E40.77827
G0 F7500 X113.391 Y103.265
G1 F1350 X113.264 Y103.393 E40.78187
G0 F7500 X112.825 Y103.265
G1 F1350 X112.698 Y103.393 E40.78547
G0 F7500 X112.26 Y103.265
G1 F1350 X112.132 Y103.393 E40.78908
G0 F7500 X111.694 Y103.265
G1 F1350 X111.567 Y103.393 E40.79268
G0 F7500 X111.128 Y103.265
G1 F1350 X111.001 Y103.393 E40.79628
G0 F7500 X110.563 Y103.265
G1 F1350 X110.435 Y103.393 E40.79989
G0 F7500 X109.997 Y103.265
G1 F1350 X109.87 Y103.393 E40.80349
G0 F7500 X109.431 Y103.265
G1 F1350 X109.304 Y103.393 E40.80709
G0 F7500 X108.866 Y103.265
G1 F1350 X108.738 Y103.393 E40.8107
G0 F7500 X108.3 Y103.265
G1 F1350 X108.173 Y103.393 E40.8143
G0 F7500 X107.734 Y103.265
G1 F1350 X107.607 Y103.393 E40.8179
G0 F7500 X107.169 Y103.265
G1 F1350 X107.041 Y103.393 E40.82151
G0 F7500 X106.603 Y103.265
G1 F1350 X106.476 Y103.393 E40.82511
G0 F7500 X106.037 Y103.265
G1 F1350 X105.91 Y103.393 E40.82871
G0 F7500 X105.472 Y103.265
G1 F1350 X105.344 Y103.393 E40.83232
G0 F7500 X104.906 Y103.265
G1 F1350 X104.779 Y103.393 E40.83592
G0 F7500 X104.34 Y103.265
G1 F1350 X104.213 Y103.393 E40.83952
G0 F7500 X103.774 Y103.265
G1 F1350 X103.647 Y103.393 E40.84311
G0 F7500 X103.209 Y103.265
G1 F1350 X103.082 Y103.393 E40.84671
G0 F7500 X102.643 Y103.265
G1 F1350 X102.516 Y103.393 E40.85031
G0 F7500 X102.077 Y103.265
G1 F1350 X101.95 Y103.393 E40.85391
G0 F7500 X101.512 Y103.265
G1 F1350 X101.384 Y103.393 E40.85752
G0 F7500 X100.946 Y103.265
G1 F1350 X100.819 Y103.393 E40.86112
G0 F7500 X100.38 Y103.265
G1 F1350 X100.253 Y103.393 E40.86472
G0 F7500 X99.815 Y103.265
G1 F1350 X99.687 Y103.393 E40.86833
G0 F7500 X99.249 Y103.265
G1 F1350 X99.122 Y103.393 E40.87193
G0 F7500 X98.683 Y103.265
G1 F1350 X98.556 Y103.393 E40.87553
G0 F7500 X98.118 Y103.265
