;FLAVOR:Marlin
;TIME:4247
;Filament used: 3.2226m
;Layer height: 0.28
;MINX:50.5
;MINY:77.75
;MINZ:0.28
;MAXX:202.851
;MAXY:156.271
;MAXZ:9.8
;Generated with Cura_SteamEngine 4.8.0
M140 S60
M105
M190 S60
M104 S200
M105
M109 S200
M82 ;absolute extrusion mode
; Ender 3 Custom Start G-code
G92 E0 ; Reset Extruder
G28 ; Home all axes
G1 Z2.0 F3000 ; Move Z Axis up little to prevent scratching of Heat Bed
G1 X0.1 Y20 Z0.3 F5000.0 ; Move to start position
G1 X0.1 Y200.0 Z0.3 F1500.0 E15 ; Draw the first line
G1 X0.4 Y200.0 Z0.3 F5000.0 ; Move to side a little
G1 X0.4 Y20 Z0.3 F1500.0 E30 ; Draw the second line
G92 E0 ; Reset Extruder
G1 Z2.0 F3000 ; Move Z Axis up little to prevent scratching of Heat Bed
G1 X5 Y20 Z0.3 F5000.0 ; Move over to prevent blob squish
G92 E0
G92 E0
G1 F1500 E-6.5
;LAYER_COUNT:35
;LAYER:0
M107
G0 F6000 X75.913 Y80.802 Z0.28
;TYPE:SKIRT
G1 F1500 E0
G1 F1200 X76.619 Y80.184 E0.04369
G1 X77.374 Y79.628 E0.08735
G1 X78.174 Y79.139 E0.13101
G1 X79.013 Y78.72 E0.17468
G1 X79.885 Y78.373 E0.21838
G1 X80.783 Y78.103 E0.26204
G1 X81.701 Y77.909 E0.30573
G1 X82.631 Y77.795 E0.34936
G1 X83.167 Y77.765 E0.37436
G1 X83.49 Y77.755 E0.38941
G1 X83.83 Y77.75 E0.40524
G1 X135.793 Y77.75 E2.82485
G1 X136.669 Y77.762 E2.86565
G1 X137.605 Y77.817 E2.90931
G1 X138.533 Y77.951 E2.95297
G1 X139.447 Y78.164 E2.99667
G1 X139.985 Y78.328 E3.02286
G1 X140.861 Y78.663 E3.06653
G1 X142.007 Y79.239 E3.12625
G1 X143.013 Y79.82 E3.18035
G1 X145.304 Y81.098 E3.3025
G1 X147.514 Y82.251 E3.41857
G1 X149.793 Y83.359 E3.53657
G1 X152.091 Y84.396 E3.65396
G1 X154.41 Y85.365 E3.77099
G1 X156.777 Y86.278 E3.88913
G1 X159.136 Y87.109 E4.00559
G1 X161.515 Y87.873 E4.12194
G1 X163.95 Y88.581 E4.24001
G1 X166.374 Y89.211 E4.35664
G1 X168.859 Y89.783 E4.47537
G1 X171.298 Y90.273 E4.59121
G1 X173.796 Y90.698 E4.7092
G1 X176.266 Y91.05 E4.82538
G1 X178.771 Y91.335 E4.94277
G1 X181.313 Y91.55 E5.06156
G1 X183.736 Y91.688 E5.17457
G1 X187.698 Y91.771 E5.3591
G1 X191.302 Y91.772 E5.52692
G1 X192 Y91.782 E5.55942
G1 X192.936 Y91.836 E5.60308
G1 X193.864 Y91.968 E5.64672
G1 X194.778 Y92.18 E5.69041
G1 X195.67 Y92.469 E5.73407
G1 X196.535 Y92.832 E5.77775
G1 X197.365 Y93.268 E5.82141
G1 X198.156 Y93.773 E5.86511
G1 X198.9 Y94.344 E5.90878
G1 X199.593 Y94.976 E5.95245
G1 X200.23 Y95.664 E5.99611
G1 X200.805 Y96.405 E6.03979
G1 X201.316 Y97.191 E6.08344
G1 X201.758 Y98.019 E6.12714
G1 X202.127 Y98.881 E6.17081
G1 X202.422 Y99.771 E6.21447
G1 X202.64 Y100.683 E6.25813
G1 X202.78 Y101.611 E6.30183
G1 X202.838 Y102.472 E6.34201
G1 X202.847 Y102.792 E6.35692
G1 X202.851 Y103.101 E6.37131
G1 X202.85 Y105.22 E6.46998
G1 X202.84 Y105.923 E6.50271
G1 X202.787 Y106.86 E6.54642
G1 X202.654 Y107.788 E6.59007
G1 X202.442 Y108.702 E6.63376
G1 X202.154 Y109.594 E6.6774
G1 X201.79 Y110.459 E6.7211
G1 X201.354 Y111.289 E6.76476
G1 X200.849 Y112.08 E6.80846
G1 X200.099 Y113.033 E6.86493
G1 X199.267 Y113.978 E6.92356
G1 X197.622 Y115.892 E7.04107
G1 X196.048 Y117.833 E7.15744
G1 X194.5 Y119.857 E7.27609
G1 X193.034 Y121.89 E7.3928
G1 X191.61 Y123.988 E7.51087
G1 X190.271 Y126.083 E7.62664
G1 X188.978 Y128.242 E7.74382
G1 X187.737 Y130.453 E7.86189
G1 X186.562 Y132.69 E7.97954
G1 X185.468 Y134.925 E8.09541
G1 X184.426 Y137.215 E8.21257
G1 X183.431 Y139.577 E8.33191
G1 X182.534 Y141.891 E8.44747
G1 X181.69 Y144.265 E8.56479
G1 X180.917 Y146.646 E8.68136
G1 X180.762 Y147.174 E8.70698
G1 X180.361 Y148.483 E8.77073
G1 X180.048 Y149.367 E8.8144
G1 X179.661 Y150.222 E8.8581
G1 X179.203 Y151.04 E8.90175
G1 X178.676 Y151.816 E8.94543
G1 X178.086 Y152.545 E8.9891
G1 X177.436 Y153.22 E9.03274
G1 X176.73 Y153.838 E9.07643
G1 X175.974 Y154.394 E9.12012
G1 X175.174 Y154.883 E9.16378
G1 X174.335 Y155.302 E9.20745
G1 X173.463 Y155.648 E9.25113
G1 X172.565 Y155.919 E9.29481
G1 X171.648 Y156.112 E9.33845
G1 X170.717 Y156.226 E9.38212
G1 X170.184 Y156.256 E9.40698
G1 X169.862 Y156.266 E9.42198
G1 X169.521 Y156.271 E9.43786
G1 X117.386 Y156.27 E11.86548
G1 X116.682 Y156.259 E11.89827
G1 X115.746 Y156.204 E11.94193
G1 X114.818 Y156.07 E11.98559
G1 X113.904 Y155.857 E12.02929
G1 X113.366 Y155.693 E12.05548
G1 X112.49 Y155.358 E12.09915
G1 X111.344 Y154.782 E12.15887
G1 X110.338 Y154.201 E12.21297
G1 X108.047 Y152.923 E12.33512
G1 X105.837 Y151.77 E12.45119
G1 X103.558 Y150.662 E12.56919
G1 X101.26 Y149.625 E12.68658
G1 X98.941 Y148.656 E12.80361
G1 X96.574 Y147.743 E12.92175
G1 X94.215 Y146.912 E13.03821
G1 X91.836 Y146.148 E13.15456
G1 X89.401 Y145.44 E13.27264
G1 X86.977 Y144.81 E13.38926
G1 X84.492 Y144.238 E13.508
G1 X82.053 Y143.748 E13.62383
G1 X79.555 Y143.323 E13.74182
G1 X77.085 Y142.971 E13.858
G1 X74.58 Y142.686 E13.97539
G1 X72.038 Y142.471 E14.09418
G1 X69.615 Y142.333 E14.20719
G1 X65.653 Y142.25 E14.39172
G1 X62.049 Y142.249 E14.55954
G1 X61.351 Y142.239 E14.59204
G1 X60.415 Y142.185 E14.6357
G1 X59.487 Y142.053 E14.67934
G1 X58.573 Y141.841 E14.72303
G1 X57.681 Y141.552 E14.7667
G1 X56.816 Y141.189 E14.81038
G1 X55.986 Y140.753 E14.85403
G1 X55.195 Y140.248 E14.89773
G1 X54.451 Y139.677 E14.9414
G1 X53.758 Y139.045 E14.98507
G1 X53.121 Y138.357 E15.02873
G1 X52.546 Y137.616 E15.07241
G1 X52.035 Y136.83 E15.11606
G1 X51.593 Y136.002 E15.15977
G1 X51.224 Y135.14 E15.20343
G1 X50.929 Y134.25 E15.24709
G1 X50.711 Y133.338 E15.29075
G1 X50.571 Y132.41 E15.33445
G1 X50.513 Y131.538 E15.37514
G1 X50.504 Y131.206 E15.39061
G1 X50.5 Y130.908 E15.40449
G1 X50.501 Y128.801 E15.5026
G1 X50.511 Y128.098 E15.53534
G1 X50.564 Y127.161 E15.57904
G1 X50.697 Y126.233 E15.62269
G1 X50.909 Y125.319 E15.66638
G1 X51.197 Y124.427 E15.71002
G1 X51.561 Y123.562 E15.75372
G1 X51.997 Y122.732 E15.79738
G1 X52.502 Y121.941 E15.84108
G1 X53.252 Y120.988 E15.89755
G1 X54.098 Y120.028 E15.95713
G1 X55.724 Y118.134 E16.07336
G1 X57.311 Y116.177 E16.19069
G1 X58.852 Y114.162 E16.30881
G1 X60.309 Y112.143 E16.42474
G1 X61.736 Y110.041 E16.54305
G1 X63.087 Y107.925 E16.65995
G1 X64.368 Y105.787 E16.776
G1 X65.617 Y103.564 E16.89473
G1 X66.789 Y101.331 E17.01216
G1 X67.882 Y99.099 E17.12789
G1 X68.934 Y96.784 E17.24629
G1 X69.9 Y94.489 E17.36224
G1 X70.836 Y92.083 E17.48245
G1 X71.665 Y89.746 E17.59791
G1 X72.434 Y87.375 E17.71398
G1 X72.606 Y86.791 E17.74233
G1 X72.989 Y85.54 E17.80325
G1 X73.301 Y84.656 E17.8469
G1 X73.688 Y83.801 E17.8906
G1 X74.146 Y82.983 E17.93425
G1 X74.672 Y82.206 E17.97794
G1 X75.263 Y81.478 E18.02161
G1 X75.913 Y80.802 E18.06528
G0 F6000 X76.263 Y81.022
G1 F1200 X76.962 Y80.422 E18.10817
G1 X77.71 Y79.886 E18.15102
G1 X78.502 Y79.416 E18.1939
G1 X79.331 Y79.017 E18.23674
G1 X80.193 Y78.691 E18.27966
G1 X81.079 Y78.442 E18.32251
G1 X81.983 Y78.27 E18.36536
G1 X83.179 Y78.165 E18.42126
G1 X83.502 Y78.155 E18.43631
G1 X83.83 Y78.15 E18.45159
G1 X135.793 Y78.15 E20.8712
G1 X136.663 Y78.162 E20.91172
G1 X137.582 Y78.217 E20.95459
G1 X138.493 Y78.351 E20.99746
G1 X139.388 Y78.563 E21.04029
G1 X139.858 Y78.708 E21.06319
G1 X140.718 Y79.037 E21.10607
G1 X141.807 Y79.585 E21.16284
G1 X142.823 Y80.172 E21.21747
G1 X145.103 Y81.444 E21.33904
G1 X147.361 Y82.622 E21.45763
G1 X149.59 Y83.705 E21.57303
G1 X151.965 Y84.777 E21.69436
G1 X154.248 Y85.731 E21.80958
G1 X156.637 Y86.653 E21.92881
G1 X158.986 Y87.48 E22.04477
G1 X161.429 Y88.264 E22.16425
G1 X163.834 Y88.963 E22.28087
G1 X166.297 Y89.604 E22.39937
G1 X168.761 Y90.171 E22.51711
G1 X171.25 Y90.671 E22.63532
G1 X173.709 Y91.09 E22.75147
G1 X176.236 Y91.45 E22.87033
G1 X178.728 Y91.733 E22.98711
G1 X181.255 Y91.947 E23.1052
G1 X183.735 Y92.088 E23.22087
G1 X187.689 Y92.171 E23.40502
G1 X191.296 Y92.172 E23.57298
G1 X191.994 Y92.182 E23.60548
G1 X192.913 Y92.235 E23.64835
G1 X193.824 Y92.368 E23.69122
G1 X194.72 Y92.579 E23.73408
G1 X195.594 Y92.867 E23.77693
G1 X196.441 Y93.23 E23.81984
G1 X197.252 Y93.665 E23.86269
G1 X198.022 Y94.169 E23.90554
G1 X198.746 Y94.738 E23.94842
G1 X199.418 Y95.368 E23.99131
G1 X200.033 Y96.053 E24.03418
G1 X200.586 Y96.789 E24.07705
G1 X201.073 Y97.57 E24.1199
G1 X201.49 Y98.391 E24.16278
G1 X201.835 Y99.245 E24.20567
G1 X202.104 Y100.125 E24.24852
G1 X202.296 Y101.026 E24.29141
G1 X202.409 Y101.939 E24.33425
G1 X202.438 Y102.483 E24.35962
G1 X202.447 Y102.803 E24.37452
G1 X202.451 Y103.101 E24.3884
G1 X202.45 Y105.215 E24.48684
G1 X202.44 Y105.918 E24.51958
G1 X202.387 Y106.837 E24.56244
G1 X202.254 Y107.748 E24.60531
G1 X202.043 Y108.644 E24.64817
G1 X201.755 Y109.518 E24.69102
G1 X201.392 Y110.365 E24.73393
G1 X200.957 Y111.176 E24.77678
G1 X200.453 Y111.947 E24.81968
G1 X199.799 Y112.769 E24.86859
G1 X198.97 Y113.71 E24.92698
G1 X197.307 Y115.646 E25.04582
G1 X195.735 Y117.584 E25.16202
G1 X194.173 Y119.625 E25.2817
G1 X192.711 Y121.653 E25.39811
G1 X191.286 Y123.753 E25.51628
G1 X189.925 Y125.884 E25.63402
G1 X188.629 Y128.046 E25.75139
G1 X187.396 Y130.241 E25.86862
G1 X186.206 Y132.507 E25.9878
G1 X185.102 Y134.762 E26.10471
G1 X184.052 Y137.073 E26.22291
G1 X183.065 Y139.413 E26.34117
G1 X182.16 Y141.749 E26.45782
G1 X181.304 Y144.155 E26.57673
G1 X180.538 Y146.515 E26.69227
G1 X180.379 Y147.057 E26.71857
G1 X179.978 Y148.366 E26.78232
G1 X179.67 Y149.234 E26.8252
G1 X179.289 Y150.071 E26.86802
G1 X178.836 Y150.873 E26.91091
G1 X178.315 Y151.632 E26.95378
G1 X177.73 Y152.343 E26.99666
G1 X177.086 Y153.001 E27.03953
G1 X176.387 Y153.6 E27.08239
G1 X175.639 Y154.136 E27.12524
G1 X174.847 Y154.606 E27.16812
G1 X174.017 Y155.005 E27.21101
G1 X173.156 Y155.33 E27.25386
G1 X172.269 Y155.58 E27.29677
G1 X171.365 Y155.751 E27.33961
G1 X170.172 Y155.856 E27.39538
G1 X169.85 Y155.866 E27.41038
G1 X169.521 Y155.871 E27.4257
G1 X117.392 Y155.87 E29.85304
G1 X116.688 Y155.859 E29.88583
G1 X115.769 Y155.804 E29.9287
G1 X114.858 Y155.67 E29.97157
G1 X113.963 Y155.458 E30.0144
G1 X113.493 Y155.313 E30.03731
G1 X112.633 Y154.984 E30.08018
G1 X111.544 Y154.436 E30.13695
G1 X110.528 Y153.849 E30.19159
G1 X108.248 Y152.577 E30.31316
G1 X105.99 Y151.399 E30.43175
G1 X103.761 Y150.316 E30.54714
G1 X101.386 Y149.244 E30.66847
G1 X99.103 Y148.29 E30.78369
G1 X96.714 Y147.368 E30.90293
G1 X94.365 Y146.541 E31.01889
G1 X91.922 Y145.757 E31.13836
G1 X89.517 Y145.058 E31.25498
G1 X87.054 Y144.417 E31.37349
G1 X84.59 Y143.85 E31.49122
G1 X82.101 Y143.35 E31.60943
G1 X79.642 Y142.931 E31.72559
G1 X77.115 Y142.571 E31.84444
G1 X74.623 Y142.288 E31.96122
G1 X72.096 Y142.074 E32.07931
G1 X69.616 Y141.933 E32.19498
G1 X65.662 Y141.85 E32.37913
G1 X62.055 Y141.849 E32.54709
G1 X61.357 Y141.839 E32.5796
G1 X60.438 Y141.786 E32.62246
G1 X59.527 Y141.653 E32.66533
G1 X58.631 Y141.442 E32.70819
G1 X57.757 Y141.154 E32.75104
G1 X56.91 Y140.791 E32.79395
G1 X56.099 Y140.356 E32.8368
G1 X55.329 Y139.852 E32.87966
G1 X54.605 Y139.283 E32.92253
G1 X53.933 Y138.653 E32.96543
G1 X53.318 Y137.968 E33.00829
G1 X52.765 Y137.232 E33.05116
G1 X52.278 Y136.451 E33.09402
G1 X51.861 Y135.63 E33.13689
G1 X51.516 Y134.776 E33.17978
G1 X51.247 Y133.896 E33.22263
G1 X51.055 Y132.995 E33.26553
G1 X50.942 Y132.082 E33.30836
G1 X50.913 Y131.527 E33.33424
G1 X50.904 Y131.195 E33.34971
G1 X50.9 Y130.908 E33.36307
G1 X50.901 Y128.806 E33.46095
G1 X50.911 Y128.103 E33.49369
G1 X50.964 Y127.184 E33.53655
G1 X51.097 Y126.273 E33.57942
G1 X51.308 Y125.377 E33.62228
G1 X51.596 Y124.503 E33.66513
G1 X51.959 Y123.656 E33.70804
G1 X52.394 Y122.845 E33.7509
G1 X52.898 Y122.074 E33.79379
G1 X53.552 Y121.252 E33.8427
G1 X54.378 Y120.315 E33.90086
G1 X56.054 Y118.363 E34.02066
G1 X57.624 Y116.426 E34.13677
G1 X59.161 Y114.417 E34.25455
G1 X60.636 Y112.372 E34.37196
G1 X62.071 Y110.259 E34.49089
G1 X63.425 Y108.14 E34.60799
G1 X64.726 Y105.966 E34.72596
G1 X65.962 Y103.767 E34.84342
G1 X67.145 Y101.514 E34.96191
G1 X68.241 Y99.275 E35.07799
G1 X69.295 Y96.956 E35.1966
G1 X70.283 Y94.609 E35.31518
G1 X71.206 Y92.235 E35.43378
G1 X72.039 Y89.887 E35.54979
G1 X72.822 Y87.474 E35.66792
G1 X72.988 Y86.908 E35.69538
G1 X73.371 Y85.657 E35.7563
G1 X73.679 Y84.789 E35.79919
G1 X74.06 Y83.951 E35.84205
G1 X74.513 Y83.15 E35.8849
G1 X75.034 Y82.391 E35.92777
G1 X75.619 Y81.679 E35.97068
G1 X76.263 Y81.022 E36.01352
G0 F6000 X76.612 Y81.243
G1 F1200 X77.304 Y80.663 E36.05556
G1 X78.044 Y80.146 E36.0976
G1 X78.828 Y79.697 E36.13967
G1 X79.648 Y79.318 E36.18173
G1 X80.498 Y79.014 E36.22376
G1 X81.372 Y78.786 E36.26582
G1 X82.263 Y78.636 E36.3079
G1 X83.191 Y78.565 E36.35123
G1 X83.514 Y78.555 E36.36628
G1 X83.83 Y78.55 E36.381
G1 X135.793 Y78.55 E38.80061
G1 X136.656 Y78.562 E38.8408
G1 X137.558 Y78.616 E38.88288
G1 X138.451 Y78.75 E38.92492
G1 X139.732 Y79.087 E38.9866
G1 X140.575 Y79.411 E39.02866
G1 X141.607 Y79.931 E39.08247
G1 X142.634 Y80.524 E39.13769
G1 X144.929 Y81.805 E39.26007
G1 X147.18 Y82.979 E39.37829
G1 X149.429 Y84.072 E39.49472
G1 X151.782 Y85.134 E39.61493
G1 X154.098 Y86.102 E39.73181
G1 X156.491 Y87.025 E39.85124
G1 X158.878 Y87.866 E39.96909
G1 X161.299 Y88.643 E40.08748
G1 X163.726 Y89.349 E40.20518
G1 X166.204 Y89.993 E40.3244
G1 X168.672 Y90.561 E40.44232
G1 X171.176 Y91.064 E40.56125
G1 X173.656 Y91.487 E40.6784
G1 X176.166 Y91.844 E40.79645
G1 X178.686 Y92.13 E40.91454
G1 X181.234 Y92.346 E41.03362
G1 X183.731 Y92.488 E41.15007
G1 X187.681 Y92.571 E41.33404
G1 X191.29 Y92.572 E41.50209
G1 X191.988 Y92.582 E41.5346
G1 X192.89 Y92.635 E41.57667
G1 X193.783 Y92.767 E41.61871
G1 X194.661 Y92.978 E41.66075
G1 X195.517 Y93.266 E41.70281
G1 X196.344 Y93.628 E41.74484
G1 X197.136 Y94.063 E41.78692
G1 X197.887 Y94.565 E41.82898
G1 X198.59 Y95.132 E41.87104
G1 X199.24 Y95.759 E41.91309
G1 X199.832 Y96.441 E41.95514
G1 X200.362 Y97.172 E41.99719
G1 X200.824 Y97.948 E42.03924
G1 X201.217 Y98.761 E42.08129
G1 X201.535 Y99.606 E42.12333
G1 X201.778 Y100.476 E42.16539
G1 X201.943 Y101.364 E42.20744
G1 X202.038 Y102.494 E42.26025
G1 X202.047 Y102.814 E42.27515
G1 X202.051 Y103.101 E42.28852
G1 X202.05 Y105.209 E42.38668
G1 X202.04 Y105.912 E42.41941
G1 X201.987 Y106.814 E42.46149
G1 X201.855 Y107.707 E42.50352
G1 X201.644 Y108.585 E42.54557
G1 X201.356 Y109.441 E42.58762
G1 X200.994 Y110.268 E42.62966
G1 X200.56 Y111.06 E42.67171
G1 X200.058 Y111.811 E42.71378
G1 X199.499 Y112.505 E42.75527
G1 X198.688 Y113.425 E42.81238
G1 X197.009 Y115.378 E42.9323
G1 X195.406 Y117.356 E43.05086
G1 X193.864 Y119.371 E43.169
G1 X192.372 Y121.441 E43.28782
G1 X190.95 Y123.534 E43.40564
G1 X189.597 Y125.653 E43.52271
G1 X188.271 Y127.866 E43.64284
G1 X187.031 Y130.075 E43.7608
G1 X185.871 Y132.283 E43.87694
G1 X184.73 Y134.614 E43.99778
G1 X183.683 Y136.918 E44.11563
G1 X182.7 Y139.251 E44.23351
G1 X181.782 Y141.618 E44.35173
G1 X180.934 Y144.003 E44.46959
G1 X180.151 Y146.417 E44.58776
G1 X179.997 Y146.94 E44.61315
G1 X179.596 Y148.249 E44.6769
G1 X179.293 Y149.1 E44.71896
G1 X178.917 Y149.92 E44.76097
G1 X178.469 Y150.705 E44.80305
G1 X177.954 Y151.446 E44.84507
G1 X177.375 Y152.14 E44.88716
G1 X176.737 Y152.779 E44.92921
G1 X176.045 Y153.359 E44.97125
G1 X175.304 Y153.876 E45.01332
G1 X174.521 Y154.325 E45.05535
G1 X173.701 Y154.703 E45.09739
G1 X172.85 Y155.008 E45.13949
G1 X171.976 Y155.235 E45.18154
G1 X171.086 Y155.385 E45.22356
G1 X170.16 Y155.456 E45.26681
G1 X169.838 Y155.466 E45.28181
G1 X169.521 Y155.471 E45.29657
G1 X117.399 Y155.47 E47.72359
G1 X116.695 Y155.459 E47.75637
G1 X115.793 Y155.405 E47.79845
G1 X114.9 Y155.271 E47.8405
G1 X113.619 Y154.934 E47.90218
G1 X112.776 Y154.61 E47.94423
G1 X111.744 Y154.09 E47.99804
G1 X110.717 Y153.497 E48.05326
G1 X108.422 Y152.216 E48.17565
G1 X106.171 Y151.042 E48.29386
G1 X103.922 Y149.949 E48.4103
G1 X101.569 Y148.887 E48.5305
G1 X99.253 Y147.919 E48.64739
G1 X96.854 Y146.994 E48.76711
