;FLAVOR:Marlin
;TIME:3340
;Filament used: 1.71877m
;Layer height: 0.16
;MINX:70
;MINY:78.5
;MINZ:0.2
;MAXX:150
;MAXY:141.5
;MAXZ:12.88
;Generated with Cura_SteamEngine 4.8.0
M140 S60
M105
M190 S60
M104 S200
M105
M109 S200
M82 ;absolute extrusion mode
; Ender 3 Custom Start G-code
G92 E0 ; Reset Extruder
G28 ; Home all axes
G1 Z2.0 F3000 ; Move Z Axis up little to prevent scratching of Heat Bed
G1 X0.1 Y20 Z0.3 F5000.0 ; Move to start position
G1 X0.1 Y200.0 Z0.3 F1500.0 E15 ; Draw the first line
G1 X0.4 Y200.0 Z0.3 F5000.0 ; Move to side a little
G1 X0.4 Y20 Z0.3 F1500.0 E30 ; Draw the second line
G92 E0 ; Reset Extruder
G1 Z2.0 F3000 ; Move Z Axis up little to prevent scratching of Heat Bed
G1 X5 Y20 Z0.3 F5000.0 ; Move over to prevent blob squish
G92 E0
G92 E0
G1 F1500 E-6.5
;LAYER_COUNT:77
;LAYER:0
M107
G0 F6000 X73.899 Y84.115 Z0.2
;TYPE:SKIRT
G1 F1500 E0
G1 F1200 X74.64 Y83.539 E0.03122
G1 X75.427 Y83.029 E0.06241
G1 X76.444 Y82.499 E0.10055
G1 X76.896 Y82.293 E0.11707
G1 X79.23 Y81.195 E0.20286
G1 X82.128 Y79.72 E0.31102
G1 X82.981 Y79.33 E0.34221
G1 X83.865 Y79.015 E0.37343
G1 X84.772 Y78.776 E0.40462
G1 X85.993 Y78.581 E0.44575
G1 X86.168 Y78.563 E0.4516
G1 X87.159 Y78.506 E0.48461
G1 X87.702 Y78.5 E0.50267
G1 X92.151 Y78.5 E0.65065
G1 X93.031 Y78.512 E0.67992
G1 X93.968 Y78.567 E0.71114
G1 X94.563 Y78.644 E0.73109
G1 X95.707 Y78.824 E0.76961
G1 X96.067 Y78.887 E0.78177
G1 X98.54 Y79.243 E0.86487
G1 X101.027 Y79.531 E0.94814
G1 X103.568 Y79.752 E1.03297
G1 X106.064 Y79.899 E1.11613
G1 X108.58 Y79.974 E1.19985
G1 X111.102 Y79.98 E1.28373
G1 X113.598 Y79.913 E1.36678
G1 X116.149 Y79.774 E1.45175
G1 X118.623 Y79.569 E1.53432
G1 X121.131 Y79.289 E1.61826
G1 X123.639 Y78.936 E1.70249
G1 X125.158 Y78.684 E1.75371
G1 X125.52 Y78.63 E1.76588
G1 X126.777 Y78.516 E1.80786
G1 X127.159 Y78.506 E1.82057
G1 X127.702 Y78.5 E1.83863
G1 X132.307 Y78.501 E1.99179
G1 X133.011 Y78.511 E2.01521
G1 X133.948 Y78.564 E2.04643
G1 X134.876 Y78.697 E2.07761
G1 X135.79 Y78.909 E2.10881
G1 X136.682 Y79.197 E2.13999
G1 X137.794 Y79.681 E2.18033
G1 X138.541 Y80.058 E2.20816
G1 X139.686 Y80.656 E2.25112
G1 X141.958 Y81.761 E2.33515
G1 X142.594 Y82.048 E2.35836
G1 X143.672 Y82.554 E2.39797
G1 X144.503 Y82.988 E2.42915
G1 X145.293 Y83.493 E2.46033
G1 X146.039 Y84.062 E2.49154
G1 X146.732 Y84.693 E2.52271
G1 X147.37 Y85.381 E2.55392
G1 X147.947 Y86.121 E2.58513
G1 X148.458 Y86.907 E2.61631
G1 X148.901 Y87.734 E2.64752
G1 X149.272 Y88.595 E2.6787
G1 X149.567 Y89.485 E2.70988
G1 X149.787 Y90.397 E2.74109
G1 X149.927 Y91.324 E2.77227
G1 X149.987 Y92.201 E2.80151
G1 X149.996 Y92.523 E2.81222
G1 X150 Y92.83 E2.82243
G1 X149.999 Y126.949 E3.95723
G1 X149.989 Y127.654 E3.98068
G1 X149.972 Y128.132 E3.99659
G1 X149.938 Y128.634 E4.01333
G1 X149.907 Y128.972 E4.02462
G1 X149.725 Y130.193 E4.06568
G1 X149.694 Y130.343 E4.07077
G1 X149.569 Y130.88 E4.08911
G1 X149.487 Y131.196 E4.09997
G1 X149.133 Y132.314 E4.13897
G1 X149.087 Y132.436 E4.14331
G1 X148.893 Y132.915 E4.1605
G1 X148.757 Y133.23 E4.17191
G1 X148.193 Y134.355 E4.21376
G1 X148.128 Y134.468 E4.2181
G1 X147.872 Y134.891 E4.23455
G1 X147.702 Y135.158 E4.24507
G1 X147.007 Y136.129 E4.28479
G1 X146.89 Y136.275 E4.29101
G1 X146.579 Y136.645 E4.30709
G1 X146.395 Y136.855 E4.31637
G1 X145.555 Y137.715 E4.35636
G1 X145.435 Y137.825 E4.36177
G1 X145.011 Y138.194 E4.38047
G1 X144.757 Y138.404 E4.39143
G1 X143.757 Y139.14 E4.43273
G1 X143.642 Y139.215 E4.43729
G1 X143.218 Y139.478 E4.45389
G1 X142.938 Y139.643 E4.4647
G1 X141.899 Y140.182 E4.50363
G1 X141.758 Y140.246 E4.50878
G1 X141.236 Y140.467 E4.52763
G1 X140.946 Y140.581 E4.538
G1 X139.81 Y140.958 E4.57781
G1 X139.663 Y140.998 E4.58287
G1 X139.205 Y141.112 E4.59857
G1 X138.896 Y141.182 E4.60911
G1 X137.662 Y141.389 E4.65073
G1 X137.534 Y141.403 E4.65501
G1 X137.03 Y141.446 E4.67183
G1 X136.681 Y141.468 E4.68346
G1 X136.286 Y141.487 E4.69662
G1 X135.981 Y141.494 E4.70676
G1 X135.404 Y141.5 E4.72595
G1 X84.551 Y141.499 E6.41733
G1 X83.845 Y141.489 E6.44082
G1 X83.49 Y141.478 E6.45263
G1 X83.361 Y141.472 E6.45692
G1 X82.87 Y141.438 E6.47329
G1 X82.531 Y141.407 E6.48462
G1 X81.281 Y141.22 E6.52665
G1 X81.128 Y141.188 E6.53185
G1 X80.624 Y141.07 E6.54907
G1 X80.311 Y140.989 E6.55982
G1 X79.187 Y140.633 E6.59904
G1 X79.057 Y140.584 E6.60366
G1 X78.561 Y140.383 E6.62146
G1 X78.252 Y140.249 E6.63266
G1 X77.107 Y139.671 E6.67532
G1 X76.995 Y139.606 E6.67963
G1 X76.63 Y139.385 E6.69382
G1 X76.36 Y139.214 E6.70445
G1 X75.382 Y138.516 E6.74441
G1 X75.238 Y138.401 E6.75054
G1 X74.792 Y138.025 E6.76994
G1 X74.575 Y137.832 E6.7796
G1 X73.755 Y137.023 E6.81792
G1 X73.652 Y136.91 E6.823
G1 X73.288 Y136.489 E6.84151
G1 X73.079 Y136.235 E6.85245
G1 X72.35 Y135.241 E6.89345
G1 X72.272 Y135.121 E6.89821
G1 X72.02 Y134.714 E6.91413
G1 X71.859 Y134.441 E6.92467
G1 X71.318 Y133.399 E6.96372
G1 X71.254 Y133.258 E6.96887
G1 X71.033 Y132.736 E6.98773
G1 X70.919 Y132.446 E6.99809
G1 X70.542 Y131.31 E7.0379
G1 X70.502 Y131.163 E7.04297
G1 X70.388 Y130.705 E7.05867
G1 X70.318 Y130.396 E7.0692
G1 X70.111 Y129.162 E7.11082
G1 X70.097 Y129.034 E7.1151
G1 X70.054 Y128.53 E7.13193
G1 X70.032 Y128.181 E7.14356
G1 X70.013 Y127.786 E7.15671
G1 X70.006 Y127.481 E7.16686
G1 X70 Y126.904 E7.18605
G1 X70.001 Y93.009 E8.3134
G1 X70.011 Y92.342 E8.33559
G1 X70.065 Y91.406 E8.36677
G1 X70.199 Y90.477 E8.39799
G1 X70.411 Y89.564 E8.42917
G1 X70.7 Y88.672 E8.46035
G1 X71.064 Y87.807 E8.49157
G1 X71.501 Y86.977 E8.52276
G1 X72.006 Y86.187 E8.55395
G1 X72.578 Y85.443 E8.58516
G1 X73.21 Y84.751 E8.61633
G1 X73.899 Y84.115 E8.64752
G0 F6000 X74.287 Y84.312
G1 F1200 X75.024 Y83.759 E8.67817
G1 X75.805 Y83.273 E8.70876
G1 X76.61 Y82.863 E8.73881
G1 X77.101 Y82.639 E8.75676
G1 X79.39 Y81.562 E8.8409
G1 X82.31 Y80.076 E8.94987
G1 X83.148 Y79.695 E8.98049
G1 X84.015 Y79.387 E9.01109
G1 X84.907 Y79.156 E9.04174
G1 X86.033 Y78.979 E9.07965
G1 X86.208 Y78.961 E9.0855
G1 X87.163 Y78.906 E9.11731
G1 X87.702 Y78.9 E9.13524
G1 X92.151 Y78.9 E9.28322
G1 X93.025 Y78.912 E9.31229
G1 X93.944 Y78.966 E9.34291
G1 X94.501 Y79.039 E9.36159
G1 X95.639 Y79.218 E9.39991
G1 X96.014 Y79.283 E9.41257
G1 X98.474 Y79.638 E9.49523
G1 X101.018 Y79.932 E9.58041
G1 X103.508 Y80.149 E9.66354
G1 X106.065 Y80.299 E9.74873
G1 X108.567 Y80.374 E9.83199
G1 X111.112 Y80.38 E9.91664
G1 X113.63 Y80.313 E10.00041
G1 X116.133 Y80.176 E10.08379
G1 X118.703 Y79.963 E10.16956
G1 X121.16 Y79.689 E10.25179
G1 X123.721 Y79.328 E10.33781
G1 X125.217 Y79.08 E10.38824
G1 X125.579 Y79.026 E10.40042
G1 X126.79 Y78.916 E10.44086
G1 X127.163 Y78.906 E10.45327
G1 X127.702 Y78.9 E10.4712
G1 X132.302 Y78.901 E10.6242
G1 X133.006 Y78.911 E10.64761
G1 X133.925 Y78.964 E10.67823
G1 X134.836 Y79.097 E10.70885
G1 X135.732 Y79.308 E10.73947
G1 X136.606 Y79.596 E10.77008
G1 X137.615 Y80.039 E10.80673
G1 X138.355 Y80.412 E10.83429
G1 X139.518 Y81.019 E10.87792
G1 X141.797 Y82.128 E10.96222
G1 X142.578 Y82.482 E10.99074
G1 X143.501 Y82.916 E11.02466
G1 X144.317 Y83.343 E11.0553
G1 X145.092 Y83.84 E11.08592
G1 X145.821 Y84.402 E11.11653
G1 X146.499 Y85.025 E11.14716
G1 X147.12 Y85.705 E11.17779
G1 X147.679 Y86.436 E11.20839
G1 X148.174 Y87.213 E11.23904
G1 X148.598 Y88.029 E11.26962
G1 X148.951 Y88.88 E11.30026
G1 X149.228 Y89.758 E11.33089
G1 X149.428 Y90.656 E11.36149
G1 X149.549 Y91.569 E11.39212
G1 X149.587 Y92.212 E11.41354
G1 X149.596 Y92.534 E11.42425
G1 X149.6 Y92.83 E11.4341
G1 X149.599 Y126.943 E12.5687
G1 X149.589 Y127.648 E12.59215
G1 X149.579 Y127.983 E12.6033
G1 X149.573 Y128.114 E12.60766
G1 X149.54 Y128.597 E12.62377
G1 X149.509 Y128.935 E12.63505
G1 X149.334 Y130.112 E12.67463
G1 X149.303 Y130.262 E12.67973
G1 X149.182 Y130.779 E12.69739
G1 X149.1 Y131.095 E12.70824
G1 X148.758 Y132.173 E12.74586
G1 X148.712 Y132.295 E12.7502
G1 X148.526 Y132.757 E12.76676
G1 X148.39 Y133.072 E12.77817
G1 X147.846 Y134.155 E12.81848
G1 X147.781 Y134.268 E12.82282
G1 X147.534 Y134.676 E12.83868
G1 X147.364 Y134.943 E12.84921
G1 X146.695 Y135.879 E12.88748
G1 X146.578 Y136.025 E12.8937
G1 X146.279 Y136.382 E12.90919
G1 X146.095 Y136.592 E12.91847
G1 X145.285 Y137.42 E12.957
G1 X145.165 Y137.53 E12.96241
G1 X144.756 Y137.885 E12.98043
G1 X144.502 Y138.095 E12.99139
G1 X143.538 Y138.805 E13.03121
G1 X143.423 Y138.88 E13.03577
G1 X143.015 Y139.133 E13.05174
G1 X142.735 Y139.298 E13.06255
G1 X141.734 Y139.818 E13.10007
G1 X141.593 Y139.882 E13.10522
G1 X141.09 Y140.095 E13.12339
G1 X140.8 Y140.209 E13.13375
G1 X139.705 Y140.572 E13.17212
G1 X139.558 Y140.612 E13.17719
G1 X139.117 Y140.722 E13.1923
G1 X138.808 Y140.792 E13.20284
G1 X137.619 Y140.991 E13.24294
G1 X137.491 Y141.005 E13.24722
G1 X137.005 Y141.047 E13.26345
G1 X136.656 Y141.069 E13.27508
G1 X136.271 Y141.087 E13.2879
G1 X135.976 Y141.094 E13.29771
G1 X135.404 Y141.1 E13.31674
G1 X84.557 Y141.099 E15.00791
G1 X83.851 Y141.089 E15.0314
G1 X83.509 Y141.079 E15.04278
G1 X83.38 Y141.073 E15.04707
G1 X82.907 Y141.04 E15.06284
G1 X82.568 Y141.009 E15.07417
G1 X81.363 Y140.828 E15.11469
G1 X81.21 Y140.796 E15.11989
G1 X80.724 Y140.683 E15.13649
G1 X80.411 Y140.602 E15.14724
G1 X79.328 Y140.259 E15.18503
G1 X79.198 Y140.21 E15.18965
G1 X78.72 Y140.016 E15.2068
G1 X78.411 Y139.882 E15.21801
G1 X77.307 Y139.325 E15.25913
G1 X77.195 Y139.26 E15.26344
G1 X76.844 Y139.047 E15.2771
G1 X76.574 Y138.876 E15.28773
G1 X75.631 Y138.204 E15.32624
G1 X75.487 Y138.089 E15.33237
G1 X75.057 Y137.727 E15.35106
G1 X74.84 Y137.534 E15.36072
G1 X74.051 Y136.754 E15.39763
G1 X73.948 Y136.641 E15.40271
G1 X73.597 Y136.235 E15.42056
G1 X73.388 Y135.981 E15.4315
G1 X72.685 Y135.023 E15.47102
G1 X72.607 Y134.903 E15.47578
G1 X72.365 Y134.511 E15.49111
G1 X72.204 Y134.238 E15.50165
G1 X71.682 Y133.234 E15.53928
G1 X71.618 Y133.093 E15.54443
G1 X71.405 Y132.59 E15.5626
G1 X71.291 Y132.3 E15.57297
G1 X70.928 Y131.205 E15.61134
G1 X70.888 Y131.058 E15.6164
G1 X70.778 Y130.617 E15.63152
G1 X70.708 Y130.308 E15.64206
G1 X70.509 Y129.119 E15.68215
G1 X70.495 Y128.991 E15.68644
G1 X70.453 Y128.505 E15.70266
G1 X70.431 Y128.156 E15.71429
G1 X70.413 Y127.771 E15.72711
G1 X70.406 Y127.476 E15.73693
G1 X70.4 Y126.904 E15.75595
G1 X70.401 Y93.015 E16.8831
G1 X70.411 Y92.348 E16.90529
G1 X70.465 Y91.429 E16.93591
G1 X70.598 Y90.518 E16.96653
G1 X70.81 Y89.622 E16.99715
G1 X71.099 Y88.748 E17.02777
G1 X71.462 Y87.902 E17.05839
G1 X71.898 Y87.091 E17.08902
G1 X72.402 Y86.321 E17.11962
G1 X72.972 Y85.597 E17.15027
G1 X73.602 Y84.926 E17.18088
G1 X74.287 Y84.312 E17.21148
G0 F6000 X74.675 Y84.513
G1 F1200 X75.407 Y83.984 E17.24152
G1 X76.183 Y83.522 E17.27156
G1 X76.776 Y83.227 E17.29359
G1 X77.244 Y83.013 E17.3107
G1 X79.576 Y81.917 E17.3964
G1 X82.491 Y80.433 E17.5052
G1 X83.313 Y80.059 E17.53523
G1 X84.165 Y79.76 E17.56527
G1 X85.04 Y79.537 E17.5953
G1 X86.074 Y79.377 E17.6301
G1 X86.249 Y79.359 E17.63595
G1 X87.168 Y79.306 E17.66657
G1 X87.702 Y79.3 E17.68433
G1 X92.151 Y79.3 E17.8323
G1 X93.019 Y79.312 E17.86118
G1 X93.921 Y79.366 E17.89123
G1 X94.439 Y79.434 E17.90861
G1 X95.57 Y79.612 E17.94669
G1 X95.954 Y79.679 E17.95965
G1 X98.442 Y80.038 E18.04326
G1 X100.935 Y80.326 E18.12673
G1 X103.524 Y80.551 E18.21317
G1 X106.028 Y80.698 E18.29659
G1 X108.554 Y80.774 E18.38065
G1 X111.122 Y80.78 E18.46606
G1 X113.625 Y80.713 E18.54934
G1 X116.192 Y80.573 E18.63484
G1 X118.706 Y80.365 E18.71874
G1 X121.228 Y80.083 E18.80315
G1 X123.764 Y79.726 E18.88833
G1 X125.101 Y79.503 E18.93341
G1 X125.638 Y79.422 E18.95147
G1 X126.803 Y79.316 E18.99038
G1 X127.168 Y79.306 E19.00253
G1 X127.702 Y79.3 E19.02029
G1 X132.296 Y79.301 E19.17309
G1 X133 Y79.311 E19.1965
G1 X133.901 Y79.364 E19.22652
G1 X134.795 Y79.496 E19.25658
G1 X135.673 Y79.707 E19.28661
G1 X136.529 Y79.995 E19.31665
G1 X137.435 Y80.396 E19.34961
G1 X138.17 Y80.767 E19.37699
G1 X139.337 Y81.376 E19.42077
G1 X141.594 Y82.474 E19.50425
G1 X142.408 Y82.843 E19.53398
G1 X143.331 Y83.277 E19.5679
G1 X144.131 Y83.698 E19.59797
G1 X144.89 Y84.187 E19.628
G1 X145.603 Y84.741 E19.65803
G1 X146.264 Y85.356 E19.68806
G1 X146.868 Y86.028 E19.71811
G1 X147.41 Y86.75 E19.74814
G1 X147.887 Y87.517 E19.77818
G1 X148.293 Y88.324 E19.80823
G1 X148.627 Y89.163 E19.83826
G1 X148.885 Y90.028 E19.86828
G1 X149.066 Y90.913 E19.89833
G1 X149.187 Y92.223 E19.94208
G1 X149.196 Y92.545 E19.9528
G1 X149.2 Y92.83 E19.96228
G1 X149.199 Y126.938 E21.09672
G1 X149.189 Y127.643 E21.12017
G1 X149.173 Y128.096 E21.13524
G1 X149.141 Y128.561 E21.15075
G1 X149.11 Y128.899 E21.16203
G1 X148.942 Y130.031 E21.2001
G1 X148.911 Y130.181 E21.20519
G1 X148.795 Y130.679 E21.2222
G1 X148.713 Y130.995 E21.23306
G1 X148.384 Y132.032 E21.26924
G1 X148.338 Y132.154 E21.27358
G1 X148.158 Y132.598 E21.28951
G1 X148.022 Y132.913 E21.30093
G1 X147.5 Y133.956 E21.33972
G1 X147.435 Y134.069 E21.34405
G1 X147.197 Y134.461 E21.35931
G1 X147.027 Y134.728 E21.36983
G1 X146.383 Y135.629 E21.40667
G1 X146.266 Y135.775 E21.41289
G1 X145.978 Y136.118 E21.42779
G1 X145.794 Y136.328 E21.43707
G1 X145.014 Y137.125 E21.47417
G1 X144.894 Y137.235 E21.47958
G1 X144.501 Y137.577 E21.49691
G1 X144.247 Y137.787 E21.50787
G1 X143.32 Y138.47 E21.54617
G1 X143.205 Y138.545 E21.55073
G1 X142.811 Y138.789 E21.56615
G1 X142.531 Y138.954 E21.57696
G1 X141.569 Y139.454 E21.61302
G1 X141.428 Y139.518 E21.61817
G1 X140.944 Y139.723 E21.63565
G1 X140.654 Y139.837 E21.64601
G1 X139.6 Y140.186 E21.68294
G1 X139.453 Y140.226 E21.68801
G1 X139.029 Y140.332 E21.70254
G1 X138.72 Y140.402 E21.71308
G1 X137.575 Y140.594 E21.7517
G1 X137.447 Y140.608 E21.75598
G1 X136.98 Y140.648 E21.77157
G1 X136.631 Y140.67 E21.7832
G1 X136.255 Y140.687 E21.79572
G1 X135.972 Y140.694 E21.80513
G1 X135.404 Y140.7 E21.82403
G1 X84.563 Y140.699 E23.515
G1 X83.857 Y140.689 E23.53849
G1 X83.527 Y140.679 E23.54947
G1 X83.398 Y140.673 E23.55376
G1 X82.943 Y140.642 E23.56893
G1 X82.604 Y140.611 E23.58026
G1 X81.445 Y140.437 E23.61924
G1 X81.292 Y140.405 E23.62443
G1 X80.825 Y140.296 E23.64038
G1 X80.512 Y140.215 E23.65114
G1 X79.469 Y139.885 E23.68752
G1 X79.339 Y139.836 E23.69214
G1 X78.879 Y139.649 E23.70866
G1 X78.57 Y139.515 E23.71986
G1 X77.508 Y138.979 E23.75943
G1 X77.396 Y138.914 E23.76373
G1 X77.058 Y138.709 E23.77688
G1 X76.788 Y138.538 E23.78751
G1 X75.881 Y137.891 E23.82457
G1 X75.737 Y137.776 E23.8307
G1 X75.323 Y137.428 E23.84869
G1 X75.106 Y137.235 E23.85835
G1 X74.347 Y136.484 E23.89386
G1 X74.244 Y136.371 E23.89894
G1 X73.906 Y135.981 E23.91611
G1 X73.697 Y135.727 E23.92705
G1 X73.021 Y134.805 E23.96507
G1 X72.943 Y134.685 E23.96983
G1 X72.709 Y134.307 E23.98462
G1 X72.548 Y134.034 E23.99516
G1 X72.046 Y133.069 E24.03134
G1 X71.982 Y132.928 E24.03649
G1 X71.777 Y132.444 E24.05397
G1 X71.663 Y132.154 E24.06434
G1 X71.314 Y131.1 E24.10127
G1 X71.274 Y130.953 E24.10633
G1 X71.168 Y130.529 E24.12087
G1 X71.098 Y130.22 E24.13141
G1 X70.906 Y129.075 E24.17002
G1 X70.892 Y128.947 E24.1743
G1 X70.852 Y128.48 E24.18989
G1 X70.83 Y128.131 E24.20152
G1 X70.813 Y127.755 E24.21404
G1 X70.806 Y127.472 E24.22346
G1 X70.8 Y126.904 E24.24235
G1 X70.801 Y93.021 E25.3693
G1 X70.811 Y92.354 E25.39149
G1 X70.865 Y91.453 E25.42151
G1 X70.998 Y90.559 E25.45157
G1 X71.209 Y89.681 E25.48161
G1 X71.498 Y88.826 E25.51163
G1 X71.86 Y87.999 E25.54165
G1 X72.295 Y87.207 E25.57171
G1 X72.798 Y86.457 E25.60174
G1 X73.365 Y85.754 E25.63178
G1 X73.993 Y85.104 E25.66184
G1 X74.675 Y84.513 E25.69186
G0 F6000 X88.023 Y90.5
G1 F1200 X91.976 Y90.5 E25.82333
G1 X91.976 Y90.7 E25.82999
G1 X88.023 Y90.7 E25.96146
G1 X88.023 Y90.5 E25.96812
G0 F6000 X87.623 Y90.1
G1 F1200 X92.376 Y90.1 E26.1262
