;FLAVOR:Marlin
;TIME:4655
;Filament used: 2.14666m
;Layer height: 0.16
;MINX:79.402
;MINY:68.388
;MINZ:0.2
;MAXX:160.437
;MAXY:151.028
;MAXZ:4.92
;Generated with Cura_SteamEngine 4.8.0
M140 S60
M105
M190 S60
M104 S200
M105
M109 S200
M82 ;absolute extrusion mode
; Ender 3 Custom Start G-code
G92 E0 ; Reset Extruder
G28 ; Home all axes
G1 Z2.0 F3000 ; Move Z Axis up little to prevent scratching of Heat Bed
G1 X0.1 Y20 Z0.3 F5000.0 ; Move to start position
G1 X0.1 Y200.0 Z0.3 F1500.0 E15 ; Draw the first line
G1 X0.4 Y200.0 Z0.3 F5000.0 ; Move to side a little
G1 X0.4 Y20 Z0.3 F1500.0 E30 ; Draw the second line
G92 E0 ; Reset Extruder
G1 Z2.0 F3000 ; Move Z Axis up little to prevent scratching of Heat Bed
G1 X5 Y20 Z0.3 F5000.0 ; Move over to prevent blob squish
G92 E0
G92 E0
G1 F1500 E-6.5
;LAYER_COUNT:32
;LAYER:0
M107
G0 F6000 X81.975 Y72.339 Z0.2
;TYPE:SKIRT
G1 F1500 E0
G1 F1200 X82.607 Y71.646 E0.03119
G1 X83.296 Y71.009 E0.0624
G1 X84.036 Y70.433 E0.09359
G1 X84.823 Y69.923 E0.12479
G1 X85.651 Y69.481 E0.156
G1 X86.513 Y69.112 E0.18719
G1 X87.403 Y68.817 E0.21838
G1 X88.315 Y68.599 E0.24956
G1 X89.243 Y68.46 E0.28077
G1 X90.137 Y68.401 E0.31057
G1 X90.539 Y68.391 E0.32395
G1 X90.813 Y68.388 E0.33306
G1 X91.614 Y68.388 E0.3597
G1 X92.469 Y68.399 E0.38814
G1 X93.556 Y68.469 E0.42437
G1 X96.321 Y68.784 E0.51693
G1 X98.957 Y69.009 E0.60492
G1 X99.791 Y69.068 E0.63273
G1 X100.723 Y69.174 E0.66393
G1 X101.642 Y69.359 E0.69511
G1 X102.559 Y69.627 E0.72688
G1 X105.077 Y70.438 E0.81487
G1 X107.473 Y71.136 E0.89787
G1 X109.935 Y71.777 E0.98249
G1 X112.396 Y72.345 E1.06649
G1 X114.819 Y72.83 E1.14868
G1 X117.343 Y73.263 E1.23386
G1 X119.815 Y73.616 E1.31691
G1 X122.313 Y73.9 E1.40053
G1 X122.962 Y73.956 E1.4222
G1 X124.046 Y74.064 E1.45843
G1 X124.974 Y74.197 E1.48961
G1 X125.888 Y74.408 E1.52081
G1 X126.78 Y74.697 E1.55199
G1 X127.645 Y75.06 E1.58319
G1 X128.475 Y75.496 E1.61438
G1 X129.266 Y76 E1.64557
G1 X129.974 Y76.54 E1.67519
G1 X130.314 Y76.824 E1.68992
G1 X131.929 Y78.203 E1.76056
G1 X133.876 Y79.773 E1.84374
G1 X135.883 Y81.298 E1.92758
G1 X137.941 Y82.774 E2.01182
G1 X140.034 Y84.186 E2.09579
G1 X142.139 Y85.522 E2.17871
G1 X144.307 Y86.812 E2.26262
G1 X146.504 Y88.037 E2.34628
G1 X148.755 Y89.21 E2.43071
G1 X151.022 Y90.311 E2.51453
G1 X153.301 Y91.342 E2.59773
G1 X153.817 Y91.566 E2.61644
G1 X154.66 Y91.976 E2.64761
G1 X155.466 Y92.457 E2.67883
G1 X156.227 Y93.005 E2.71002
G1 X156.939 Y93.615 E2.74121
G1 X157.596 Y94.284 E2.77239
G1 X158.194 Y95.007 E2.8036
G1 X158.728 Y95.778 E2.83479
G1 X159.195 Y96.591 E2.86598
G1 X159.59 Y97.442 E2.89718
G1 X159.912 Y98.323 E2.92838
G1 X160.158 Y99.228 E2.95957
G1 X160.325 Y100.151 E2.99077
G1 X160.424 Y101.347 E3.03069
G1 X160.433 Y101.671 E3.04147
G1 X160.437 Y101.975 E3.05158
G1 X160.437 Y121.093 E3.68745
G1 X160.427 Y121.795 E3.7108
G1 X160.374 Y122.731 E3.74198
G1 X160.241 Y123.659 E3.77316
G1 X160.029 Y124.573 E3.80437
G1 X159.741 Y125.466 E3.83557
G1 X159.377 Y126.33 E3.86676
G1 X158.941 Y127.161 E3.89797
G1 X158.436 Y127.951 E3.92915
G1 X157.866 Y128.695 E3.96033
G1 X157.234 Y129.388 E3.99152
G1 X156.545 Y130.025 E4.02273
G1 X155.805 Y130.601 E4.05392
G1 X155.018 Y131.112 E4.08513
G1 X154.191 Y131.553 E4.1163
G1 X153.1 Y132.007 E4.15561
G1 X152.363 Y132.267 E4.1816
G1 X151.022 Y132.721 E4.22869
G1 X148.617 Y133.612 E4.31399
G1 X146.318 Y134.538 E4.39643
G1 X144.013 Y135.544 E4.48007
G1 X141.713 Y136.625 E4.5646
G1 X139.483 Y137.752 E4.64771
G1 X137.257 Y138.955 E4.73186
G1 X135.087 Y140.212 E4.81527
G1 X132.96 Y141.524 E4.89839
G1 X130.833 Y142.92 E4.98301
G1 X129.713 Y143.7 E5.02841
G1 X129.105 Y144.11 E5.0528
G1 X128.306 Y144.601 E5.08399
G1 X127.468 Y145.022 E5.11518
G1 X126.597 Y145.37 E5.14638
G1 X125.699 Y145.642 E5.17758
G1 X124.782 Y145.837 E5.20877
G1 X123.907 Y145.949 E5.23811
G1 X123.36 Y145.997 E5.25637
G1 X120.795 Y146.254 E5.34211
G1 X118.331 Y146.572 E5.42474
G1 X115.807 Y146.971 E5.50973
G1 X113.352 Y147.43 E5.5928
G1 X110.895 Y147.961 E5.67641
G1 X108.491 Y148.552 E5.75875
G1 X106.025 Y149.235 E5.84385
G1 X102.954 Y150.19 E5.95082
G1 X102.133 Y150.461 E5.97958
G1 X101.23 Y150.718 E6.0108
G1 X100.31 Y150.896 E6.04197
G1 X99.162 Y151.006 E6.08033
G1 X99.002 Y151.013 E6.08565
G1 X98.661 Y151.023 E6.097
G1 X98.269 Y151.028 E6.11004
G1 X97.968 Y151.028 E6.12005
G1 X97.286 Y151.018 E6.14274
G1 X96.203 Y150.948 E6.17883
G1 X93.44 Y150.633 E6.27132
G1 X90.818 Y150.41 E6.35885
G1 X89.967 Y150.349 E6.38722
G1 X89.035 Y150.243 E6.41842
G1 X88.116 Y150.057 E6.44961
G1 X87.216 Y149.794 E6.4808
G1 X86.341 Y149.455 E6.51201
G1 X85.499 Y149.043 E6.54318
G1 X84.694 Y148.561 E6.57439
G1 X83.934 Y148.012 E6.60557
G1 X82.937 Y147.121 E6.65005
G1 X82.822 Y147.005 E6.65548
G1 X82.191 Y146.312 E6.68665
G1 X81.621 Y145.567 E6.71785
G1 X81.117 Y144.776 E6.74905
G1 X80.681 Y143.946 E6.78023
G1 X80.318 Y143.081 E6.81143
G1 X80.031 Y142.188 E6.84263
G1 X79.82 Y141.274 E6.87383
G1 X79.688 Y140.346 E6.905
G1 X79.64 Y139.632 E6.9288
G1 X79.63 Y139.236 E6.94198
G1 X79.624 Y138.666 E6.96094
G1 X79.624 Y136.026 E7.04875
G1 X79.587 Y133.43 E7.1351
G1 X79.469 Y130.672 E7.22691
G1 X79.43 Y130.006 E7.2491
G1 X79.416 Y129.688 E7.25969
G1 X79.407 Y129.379 E7.26997
G1 X79.402 Y129.059 E7.28062
G1 X79.402 Y79.927 E8.91475
G1 X79.412 Y79.238 E8.93767
G1 X79.466 Y78.302 E8.96885
G1 X79.599 Y77.374 E9.00004
G1 X79.811 Y76.46 E9.03124
G1 X80.099 Y75.568 E9.06242
G1 X80.463 Y74.703 E9.09363
G1 X80.899 Y73.873 E9.12481
G1 X81.404 Y73.083 E9.156
G1 X81.975 Y72.339 E9.18719
G0 F6000 X82.369 Y72.492
G1 F1200 X82.999 Y71.82 E9.21783
G1 X83.684 Y71.206 E9.24843
G1 X84.421 Y70.653 E9.27907
G1 X85.202 Y70.166 E9.30968
G1 X86.023 Y69.749 E9.34031
G1 X86.877 Y69.405 E9.37093
G1 X87.757 Y69.136 E9.40154
G1 X88.658 Y68.944 E9.43218
G1 X89.571 Y68.831 E9.46278
G1 X90.147 Y68.801 E9.48196
G1 X90.549 Y68.791 E9.49534
G1 X90.813 Y68.788 E9.50412
G1 X91.614 Y68.788 E9.53076
G1 X92.463 Y68.799 E9.559
G1 X93.51 Y68.866 E9.59389
G1 X96.274 Y69.181 E9.68642
G1 X98.963 Y69.41 E9.77618
G1 X99.763 Y69.467 E9.80286
G1 X100.677 Y69.571 E9.83345
G1 X101.579 Y69.755 E9.86407
G1 X102.43 Y70.006 E9.89358
G1 X104.938 Y70.814 E9.98122
G1 X107.375 Y71.523 E10.06563
G1 X109.849 Y72.168 E10.15067
G1 X112.293 Y72.732 E10.23409
G1 X114.75 Y73.224 E10.31744
G1 X117.285 Y73.658 E10.40298
G1 X119.75 Y74.011 E10.4858
G1 X122.27 Y74.298 E10.57016
G1 X122.922 Y74.354 E10.59192
G1 X124.006 Y74.462 E10.62816
G1 X124.917 Y74.593 E10.65877
G1 X125.814 Y74.803 E10.68941
G1 X126.689 Y75.089 E10.72003
G1 X127.535 Y75.451 E10.75063
G1 X128.348 Y75.884 E10.78127
G1 X129.119 Y76.387 E10.81189
G1 X129.719 Y76.848 E10.83705
G1 X130.054 Y77.128 E10.85157
G1 X131.664 Y78.502 E10.92197
G1 X133.651 Y80.104 E11.00687
G1 X135.647 Y81.622 E11.09027
G1 X137.707 Y83.099 E11.17458
G1 X139.777 Y84.496 E11.25764
G1 X141.942 Y85.869 E11.34291
G1 X144.114 Y87.161 E11.42696
G1 X146.33 Y88.398 E11.51137
G1 X148.574 Y89.567 E11.59553
G1 X150.831 Y90.664 E11.67899
G1 X153.1 Y91.689 E11.7618
G1 X153.658 Y91.932 E11.78205
G1 X154.485 Y92.336 E11.81266
G1 X155.274 Y92.81 E11.84327
G1 X156.019 Y93.351 E11.8739
G1 X156.715 Y93.954 E11.90452
G1 X157.355 Y94.615 E11.93513
G1 X157.936 Y95.33 E11.96577
G1 X158.453 Y96.092 E11.99639
G1 X158.901 Y96.896 E12.02701
G1 X159.278 Y97.736 E12.05763
G1 X159.581 Y98.605 E12.08824
G1 X159.807 Y99.498 E12.11888
G1 X159.955 Y100.406 E12.14948
G1 X160.024 Y101.358 E12.18122
G1 X160.033 Y101.682 E12.192
G1 X160.037 Y101.975 E12.20175
G1 X160.037 Y121.087 E12.83742
G1 X160.027 Y121.789 E12.86077
G1 X159.974 Y122.708 E12.89139
G1 X159.841 Y123.619 E12.92201
G1 X159.63 Y124.515 E12.95262
G1 X159.342 Y125.39 E12.98326
G1 X158.979 Y126.236 E13.01388
G1 X158.544 Y127.047 E13.04449
G1 X158.04 Y127.818 E13.07513
G1 X157.472 Y128.542 E13.10573
G1 X156.842 Y129.214 E13.13637
G1 X156.157 Y129.828 E13.16697
G1 X155.421 Y130.381 E13.19758
G1 X154.639 Y130.868 E13.22823
G1 X153.819 Y131.286 E13.25884
G1 X152.966 Y131.63 E13.28943
G1 X152.235 Y131.888 E13.31521
G1 X150.86 Y132.354 E13.3635
G1 X148.508 Y133.224 E13.44691
G1 X146.145 Y134.176 E13.53164
G1 X143.848 Y135.179 E13.615
G1 X141.541 Y136.264 E13.6998
G1 X139.306 Y137.393 E13.78308
G1 X137.073 Y138.6 E13.86751
G1 X134.883 Y139.869 E13.95169
G1 X132.711 Y141.208 E14.03656
G1 X130.63 Y142.574 E14.11935
G1 X129.63 Y143.272 E14.15991
G1 X128.881 Y143.778 E14.18997
G1 X128.096 Y144.26 E14.22061
G1 X127.273 Y144.671 E14.25121
G1 X126.416 Y145.009 E14.28185
G1 X125.534 Y145.271 E14.31245
G1 X124.632 Y145.456 E14.34308
G1 X123.872 Y145.55 E14.36855
G1 X123.362 Y145.594 E14.38557
G1 X120.775 Y145.854 E14.47205
G1 X118.255 Y146.179 E14.55656
G1 X115.743 Y146.576 E14.64115
G1 X113.266 Y147.039 E14.72496
G1 X110.821 Y147.568 E14.80816
G1 X108.353 Y148.175 E14.89269
G1 X105.935 Y148.844 E14.97614
G1 X102.855 Y149.802 E15.08342
G1 X102.007 Y150.082 E15.11312
G1 X101.121 Y150.332 E15.14374
G1 X100.217 Y150.505 E15.17436
G1 X99.144 Y150.607 E15.2102
G1 X98.984 Y150.614 E15.21553
G1 X98.656 Y150.623 E15.22644
G1 X98.264 Y150.628 E15.23948
G1 X97.974 Y150.628 E15.24913
G1 X97.292 Y150.618 E15.27181
G1 X96.248 Y150.551 E15.30661
G1 X93.483 Y150.236 E15.39917
G1 X90.811 Y150.008 E15.48836
G1 X89.995 Y149.95 E15.51557
G1 X89.081 Y149.845 E15.54617
G1 X88.179 Y149.661 E15.57679
G1 X87.296 Y149.399 E15.60742
G1 X86.44 Y149.061 E15.63803
G1 X85.615 Y148.651 E15.66868
G1 X84.83 Y148.171 E15.69928
G1 X84.089 Y147.624 E15.72991
G1 X83.221 Y146.84 E15.76882
G1 X83.106 Y146.724 E15.77425
G1 X82.487 Y146.042 E15.80488
G1 X81.929 Y145.31 E15.83549
G1 X81.437 Y144.532 E15.86611
G1 X81.015 Y143.714 E15.89673
G1 X80.665 Y142.862 E15.92736
G1 X80.39 Y141.984 E15.95796
G1 X80.192 Y141.085 E15.98858
G1 X80.073 Y140.172 E16.0192
G1 X80.04 Y139.619 E16.03763
G1 X80.03 Y139.232 E16.0505
G1 X80.024 Y138.666 E16.06933
G1 X80.024 Y136.02 E16.15734
G1 X79.987 Y133.406 E16.24429
G1 X79.871 Y130.701 E16.33434
G1 X79.829 Y129.983 E16.35826
G1 X79.815 Y129.677 E16.36845
G1 X79.806 Y129.368 E16.37873
G1 X79.802 Y129.059 E16.38901
G1 X79.802 Y79.933 E18.02295
G1 X79.812 Y79.244 E18.04586
G1 X79.865 Y78.325 E18.07648
G1 X79.998 Y77.414 E18.1071
G1 X80.21 Y76.518 E18.13773
G1 X80.498 Y75.644 E18.16833
G1 X80.861 Y74.798 E18.19895
G1 X81.296 Y73.986 E18.22959
G1 X81.8 Y73.216 E18.2602
G1 X82.369 Y72.492 E18.29083
G0 F6000 X82.763 Y72.649
G1 F1200 X83.39 Y71.999 E18.32086
G1 X84.072 Y71.407 E18.3509
G1 X84.804 Y70.877 E18.38096
G1 X85.58 Y70.415 E18.411
G1 X86.393 Y70.023 E18.44102
G1 X87.238 Y69.704 E18.47106
G1 X88.108 Y69.461 E18.5011
G1 X88.996 Y69.297 E18.53114
G1 X90.157 Y69.201 E18.56988
G1 X90.559 Y69.191 E18.58326
G1 X90.813 Y69.188 E18.59171
G1 X91.614 Y69.188 E18.61835
G1 X92.457 Y69.199 E18.64639
G1 X93.465 Y69.264 E18.67998
G1 X96.231 Y69.579 E18.77258
G1 X98.904 Y69.807 E18.8618
G1 X99.734 Y69.866 E18.88948
G1 X100.631 Y69.969 E18.91951
G1 X101.516 Y70.152 E18.94957
G1 X102.34 Y70.398 E18.97817
G1 X104.819 Y71.196 E19.06479
G1 X107.267 Y71.909 E19.14959
G1 X109.73 Y72.55 E19.23424
G1 X112.229 Y73.127 E19.31954
G1 X114.704 Y73.622 E19.40349
G1 X117.203 Y74.051 E19.48783
G1 X119.681 Y74.405 E19.57108
G1 X122.262 Y74.699 E19.65748
G1 X122.882 Y74.752 E19.67818
G1 X123.966 Y74.86 E19.71441
G1 X124.86 Y74.989 E19.74445
G1 X125.739 Y75.197 E19.7745
G1 X126.596 Y75.482 E19.80453
G1 X127.424 Y75.841 E19.83455
G1 X128.218 Y76.273 E19.86462
G1 X128.97 Y76.772 E19.89463
G1 X129.463 Y77.156 E19.91542
G1 X129.794 Y77.432 E19.92975
G1 X131.419 Y78.82 E20.00083
G1 X133.381 Y80.401 E20.08464
G1 X135.418 Y81.95 E20.16975
G1 X137.478 Y83.427 E20.25406
G1 X139.583 Y84.847 E20.33851
G1 X141.728 Y86.208 E20.42301
G1 X143.92 Y87.512 E20.50784
G1 X146.129 Y88.744 E20.59196
G1 X148.393 Y89.924 E20.67688
G1 X150.67 Y91.031 E20.76109
G1 X152.912 Y92.044 E20.84291
G1 X153.498 Y92.299 E20.86417
G1 X154.309 Y92.696 E20.8942
G1 X155.082 Y93.163 E20.92424
G1 X155.811 Y93.696 E20.95428
G1 X156.49 Y94.292 E20.98433
G1 X157.113 Y94.945 E21.01434
G1 X157.676 Y95.651 E21.04438
G1 X158.175 Y96.405 E21.07445
G1 X158.605 Y97.199 E21.10448
G1 X158.962 Y98.028 E21.1345
G1 X159.246 Y98.885 E21.16453
G1 X159.452 Y99.765 E21.19459
G1 X159.58 Y100.659 E21.22463
G1 X159.624 Y101.369 E21.24829
G1 X159.633 Y101.693 E21.25907
G1 X159.637 Y101.975 E21.26845
G1 X159.637 Y121.081 E21.90392
G1 X159.627 Y121.783 E21.92727
G1 X159.574 Y122.685 E21.95732
G1 X159.442 Y123.578 E21.98735
G1 X159.231 Y124.456 E22.01738
G1 X158.943 Y125.312 E22.04742
G1 X158.581 Y126.14 E22.07748
G1 X158.147 Y126.932 E22.10751
G1 X157.644 Y127.682 E22.13755
G1 X157.078 Y128.385 E22.16757
G1 X156.451 Y129.035 E22.1976
G1 X155.769 Y129.627 E22.22764
G1 X155.037 Y130.157 E22.2577
G1 X154.262 Y130.62 E22.28773
G1 X153.448 Y131.012 E22.31778
G1 X152.833 Y131.253 E22.33975
G1 X152.107 Y131.509 E22.36535
G1 X150.73 Y131.975 E22.4137
G1 X148.356 Y132.854 E22.4979
G1 X146.014 Y133.798 E22.58188
G1 X143.667 Y134.822 E22.66705
G1 X141.369 Y135.903 E22.75152
G1 X139.114 Y137.042 E22.83554
G1 X136.873 Y138.254 E22.92028
G1 X134.667 Y139.531 E23.00506
G1 X132.528 Y140.85 E23.08864
G1 X130.387 Y142.256 E23.17383
G1 X129.266 Y143.037 E23.21928
G1 X128.658 Y143.447 E23.24367
G1 X127.887 Y143.918 E23.27372
G1 X127.078 Y144.319 E23.30375
G1 X126.237 Y144.648 E23.33378
G1 X125.37 Y144.9 E23.36381
G1 X124.484 Y145.075 E23.39385
G1 X123.838 Y145.152 E23.41549
G1 X123.283 Y145.2 E23.43402
G1 X120.72 Y145.457 E23.51969
G1 X118.207 Y145.782 E23.60397
G1 X115.678 Y146.181 E23.68913
G1 X113.213 Y146.642 E23.77253
G1 X110.679 Y147.191 E23.85877
G1 X108.288 Y147.778 E23.94066
G1 X105.807 Y148.465 E24.02628
G1 X102.736 Y149.42 E24.13325
G1 X101.882 Y149.702 E24.16316
G1 X101.012 Y149.947 E24.19322
G1 X100.125 Y150.114 E24.22324
G1 X99.127 Y150.207 E24.25658
G1 X98.967 Y150.214 E24.26191
G1 X98.651 Y150.223 E24.27242
G1 X98.259 Y150.228 E24.28546
G1 X97.979 Y150.228 E24.29477
G1 X97.297 Y150.218 E24.31746
G1 X96.293 Y150.154 E24.35092
G1 X93.491 Y149.835 E24.44472
G1 X90.87 Y149.611 E24.53221
G1 X90.024 Y149.551 E24.56042
G1 X89.127 Y149.447 E24.59045
G1 X88.242 Y149.264 E24.62051
G1 X87.378 Y149.004 E24.65052
G1 X86.539 Y148.668 E24.68058
G1 X85.734 Y148.259 E24.71061
G1 X84.968 Y147.781 E24.74064
G1 X84.247 Y147.236 E24.7707
G1 X83.505 Y146.558 E24.80413
G1 X83.39 Y146.442 E24.80956
G1 X82.784 Y145.773 E24.83959
G1 X82.238 Y145.053 E24.86964
G1 X81.759 Y144.288 E24.89966
G1 X81.349 Y143.483 E24.92971
G1 X81.012 Y142.645 E24.95975
G1 X80.75 Y141.781 E24.98978
G1 X80.566 Y140.897 E25.01981
G1 X80.44 Y139.605 E25.06299
G1 X80.43 Y139.227 E25.07556
G1 X80.424 Y138.666 E25.09422
G1 X80.424 Y136.014 E25.18243
G1 X80.387 Y133.418 E25.26878
G1 X80.269 Y130.657 E25.3607
G1 X80.228 Y129.959 E25.38395
G1 X80.215 Y129.665 E25.39374
G1 X80.206 Y129.356 E25.40402
G1 X80.202 Y129.059 E25.4139
G1 X80.202 Y79.939 E27.04764
G1 X80.212 Y79.25 E27.07056
G1 X80.265 Y78.348 E27.10061
G1 X80.398 Y77.455 E27.13064
G1 X80.609 Y76.577 E27.16067
G1 X80.897 Y75.721 E27.19071
G1 X81.259 Y74.894 E27.22074
G1 X81.694 Y74.102 E27.25079
G1 X82.196 Y73.352 E27.28081
G1 X82.763 Y72.649 E27.31085
G1 F1500 E20.81085
G0 F6000 X89.741 Y129.545
G0 X89.959 Y130.389
G0 X90.823 Y130.388
;TYPE:SUPPORT-INTERFACE
G1 F1500 E27.31085
G1 F1200 X91.9 Y130.388 E27.34667
G1 X91.9 Y139.188 E27.63936
G1 X90.828 Y139.188 E27.67501
G1 X90.824 Y139.184 E27.6752
G1 X90.823 Y130.388 E27.96776
G1 F1500 E21.46776
G0 F6000 X89.959 Y130.389
G0 X89.963 Y139.54
G0 X90.472 Y140.049
G0 X92.257 Y140.049
G0 X92.71 Y139.596
G0 X96.649 Y131.03
