;FLAVOR:Marlin
;TIME:10324
;Filament used: 6.77793m
;Layer height: 0.16
;MINX:31.5
;MINY:73.5
;MINZ:0.2
;MAXX:188.501
;MAXY:135.543
;MAXZ:15.88
;Generated with Cura_SteamEngine 4.8.0
M140 S60
M105
M190 S60
M104 S200
M105
M109 S200
M82 ;absolute extrusion mode
; Ender 3 Custom Start G-code
G92 E0 ; Reset Extruder
G28 ; Home all axes
G1 Z2.0 F3000 ; Move Z Axis up little to prevent scratching of Heat Bed
G1 X0.1 Y20 Z0.3 F5000.0 ; Move to start position
G1 X0.1 Y200.0 Z0.3 F1500.0 E15 ; Draw the first line
G1 X0.4 Y200.0 Z0.3 F5000.0 ; Move to side a little
G1 X0.4 Y20 Z0.3 F1500.0 E30 ; Draw the second line
G92 E0 ; Reset Extruder
G1 Z2.0 F3000 ; Move Z Axis up little to prevent scratching of Heat Bed
G1 X5 Y20 Z0.3 F5000.0 ; Move over to prevent blob squish
G92 E0
G92 E0
G1 F1500 E-6.5
;LAYER_COUNT:82
;LAYER:0
M107
G0 F6000 X38.54 Y75.37 Z0.2
;TYPE:SKIRT
G1 F1500 E0
G1 F1200 X39.618 Y74.809 E0.04042
G1 X39.762 Y74.744 E0.04567
G1 X40.264 Y74.533 E0.06379
G1 X40.554 Y74.419 E0.07415
G1 X41.69 Y74.042 E0.11396
G1 X41.837 Y74.002 E0.11903
G1 X42.295 Y73.888 E0.13472
G1 X42.604 Y73.818 E0.14526
G1 X43.838 Y73.611 E0.18688
G1 X43.966 Y73.597 E0.19116
G1 X44.47 Y73.554 E0.20798
G1 X44.819 Y73.532 E0.21962
G1 X45.214 Y73.513 E0.23277
G1 X45.519 Y73.506 E0.24292
G1 X46.096 Y73.5 E0.26211
G1 X48.793 Y73.5 E0.35181
G1 X49.655 Y73.511 E0.38048
G1 X50.01 Y73.522 E0.3923
G1 X50.139 Y73.528 E0.39659
G1 X50.621 Y73.561 E0.41266
G1 X50.963 Y73.592 E0.42408
G1 X52.24 Y73.784 E0.46703
G1 X52.387 Y73.815 E0.47203
G1 X52.88 Y73.931 E0.48887
G1 X53.196 Y74.013 E0.49973
G1 X54.313 Y74.367 E0.53871
G1 X54.443 Y74.416 E0.54333
G1 X54.93 Y74.613 E0.5608
G1 X55.219 Y74.738 E0.57127
G1 X55.746 Y74.983 E0.5906
G1 X56.213 Y75.216 E0.60796
G1 X57.962 Y76.12 E0.67344
G1 X60.247 Y77.221 E0.7578
G1 X62.525 Y78.239 E0.84079
G1 X64.884 Y79.216 E0.92572
G1 X67.223 Y80.109 E1.00899
G1 X69.615 Y80.942 E1.09323
G1 X71.979 Y81.693 E1.17573
G1 X74.414 Y82.391 E1.25998
G1 X76.851 Y83.015 E1.34365
G1 X79.302 Y83.57 E1.42724
G1 X81.755 Y84.054 E1.5104
G1 X84.238 Y84.47 E1.59413
G1 X86.772 Y84.822 E1.67922
G1 X89.229 Y85.092 E1.76143
G1 X91.76 Y85.298 E1.84589
G1 X94.256 Y85.431 E1.92903
G1 X97.837 Y85.5 E2.04816
G1 X122.18 Y85.5 E2.85781
G1 X124.788 Y85.463 E2.94456
G1 X127.31 Y85.356 E3.02852
G1 X129.805 Y85.179 E3.11171
G1 X132.303 Y84.931 E3.1952
G1 X134.792 Y84.613 E3.27866
G1 X137.301 Y84.219 E3.36313
G1 X139.767 Y83.76 E3.44656
G1 X142.218 Y83.233 E3.52994
G1 X144.678 Y82.63 E3.61418
G1 X147.112 Y81.96 E3.69815
G1 X149.491 Y81.232 E3.7809
G1 X151.894 Y80.421 E3.86525
G1 X154.264 Y79.547 E3.94927
G1 X156.597 Y78.611 E4.03288
G1 X158.889 Y77.614 E4.11601
G1 X161.206 Y76.527 E4.20113
G1 X163.358 Y75.444 E4.28126
G1 X164.048 Y75.085 E4.30713
G1 X164.643 Y74.798 E4.3291
G1 X164.802 Y74.727 E4.33489
G1 X165.244 Y74.541 E4.35084
G1 X165.535 Y74.426 E4.36125
G1 X166.69 Y74.042 E4.40173
G1 X166.837 Y74.002 E4.4068
G1 X167.295 Y73.888 E4.4225
G1 X167.604 Y73.818 E4.43304
G1 X168.838 Y73.611 E4.47465
G1 X168.966 Y73.597 E4.47893
G1 X169.47 Y73.554 E4.49576
G1 X169.819 Y73.532 E4.50739
G1 X170.214 Y73.513 E4.52054
G1 X170.519 Y73.506 E4.53069
G1 X171.096 Y73.5 E4.54988
G1 X173.949 Y73.501 E4.64477
G1 X174.655 Y73.511 E4.66826
G1 X175.01 Y73.522 E4.68007
G1 X175.139 Y73.528 E4.68436
G1 X175.621 Y73.561 E4.70043
G1 X175.963 Y73.592 E4.71186
G1 X177.24 Y73.784 E4.75481
G1 X177.387 Y73.815 E4.7598
G1 X177.88 Y73.931 E4.77665
G1 X178.196 Y74.013 E4.78751
G1 X179.313 Y74.367 E4.82648
G1 X179.443 Y74.416 E4.8311
G1 X179.936 Y74.615 E4.84878
G1 X180.243 Y74.748 E4.85991
G1 X181.385 Y75.324 E4.90245
G1 X181.492 Y75.386 E4.90656
G1 X181.865 Y75.613 E4.92109
G1 X182.138 Y75.786 E4.93184
G1 X183.129 Y76.493 E4.97233
G1 X183.275 Y76.61 E4.97855
G1 X183.648 Y76.923 E4.99474
G1 X183.859 Y77.108 E5.00408
G1 X184.721 Y77.952 E5.0442
G1 X184.829 Y78.07 E5.04952
G1 X185.201 Y78.497 E5.06836
G1 X185.413 Y78.754 E5.07944
G1 X186.121 Y79.715 E5.11914
G1 X186.188 Y79.817 E5.1232
G1 X186.452 Y80.24 E5.13978
G1 X186.623 Y80.528 E5.15092
G1 X187.191 Y81.618 E5.1918
G1 X187.256 Y81.762 E5.19706
G1 X187.467 Y82.264 E5.21517
G1 X187.581 Y82.554 E5.22553
G1 X187.958 Y83.69 E5.26534
G1 X187.998 Y83.837 E5.27041
G1 X188.111 Y84.29 E5.28594
G1 X188.18 Y84.594 E5.29631
G1 X188.384 Y85.796 E5.33686
G1 X188.399 Y85.929 E5.34131
G1 X188.446 Y86.468 E5.3593
G1 X188.468 Y86.816 E5.3709
G1 X188.486 Y87.191 E5.38339
G1 X188.494 Y87.515 E5.39417
G1 X188.5 Y88.096 E5.41349
G1 X188.501 Y98.789 E5.76914
G1 X188.489 Y99.65 E5.79778
G1 X188.473 Y100.11 E5.81309
G1 X188.44 Y100.58 E5.82876
G1 X188.292 Y102.185 E5.88237
G1 X188.274 Y102.348 E5.88783
G1 X188.078 Y104.85 E5.9713
G1 X187.954 Y107.336 E6.05409
G1 X187.9 Y109.888 E6.13899
G1 X187.917 Y112.417 E6.2231
G1 X188.004 Y114.904 E6.30587
G1 X188.164 Y117.425 E6.38989
G1 X188.383 Y119.833 E6.47031
G1 X188.426 Y120.243 E6.48402
G1 X188.485 Y121.215 E6.51641
G1 X188.496 Y121.915 E6.53969
G1 X188.496 Y122.244 E6.55064
G1 X188.489 Y122.738 E6.56707
G1 X188.463 Y123.345 E6.58728
G1 X188.447 Y123.575 E6.59494
G1 X188.264 Y124.95 E6.64108
G1 X188.221 Y125.167 E6.64844
G1 X188 Y126.078 E6.67962
G1 X187.985 Y126.13 E6.68142
G1 X187.555 Y127.348 E6.72438
G1 X187.369 Y127.79 E6.74033
G1 X186.969 Y128.638 E6.77151
G1 X186.671 Y129.167 E6.79171
G1 X186.561 Y129.351 E6.79884
G1 X186.046 Y130.135 E6.83004
G1 X185.695 Y130.597 E6.84933
G1 X185.65 Y130.653 E6.85172
G1 X185.312 Y131.053 E6.86914
G1 X185.158 Y131.227 E6.87687
G1 X184.292 Y132.102 E6.91782
G1 X184.22 Y132.167 E6.92104
G1 X183.843 Y132.492 E6.9376
G1 X183.65 Y132.651 E6.94591
G1 X182.902 Y133.216 E6.97709
G1 X182.321 Y133.59 E7.00007
G1 X182.088 Y133.73 E7.00911
G1 X180.846 Y134.373 E7.05563
G1 X180.575 Y134.492 E7.06548
G1 X179.701 Y134.832 E7.09667
G1 X179.061 Y135.028 E7.11893
G1 X178.824 Y135.093 E7.1271
G1 X177.91 Y135.303 E7.1583
G1 X177.053 Y135.426 E7.18709
G1 X176.553 Y135.478 E7.20381
G1 X175.546 Y135.536 E7.23736
G1 X174.911 Y135.543 E7.25848
G1 X45.08 Y135.542 E11.57668
G1 X44.375 Y135.532 E11.60013
G1 X43.652 Y135.498 E11.6242
G1 X43.39 Y135.477 E11.63294
G1 X42.459 Y135.362 E11.66414
G1 X41.608 Y135.185 E11.69305
G1 X41.227 Y135.09 E11.70611
G1 X40.254 Y134.799 E11.73989
G1 X39.934 Y134.687 E11.75117
G1 X39.063 Y134.34 E11.78235
G1 X38.175 Y133.892 E11.81543
G1 X37.69 Y133.606 E11.83416
G1 X37.506 Y133.491 E11.84138
G1 X36.733 Y132.96 E11.87257
G1 X36.186 Y132.522 E11.89588
G1 X36.027 Y132.386 E11.90284
G1 X35.127 Y131.523 E11.94431
G1 X34.843 Y131.218 E11.95817
G1 X34.233 Y130.505 E11.98938
G1 X33.649 Y129.684 E12.02289
G1 X33.52 Y129.484 E12.0308
G1 X33.046 Y128.675 E12.06199
G1 X32.685 Y127.929 E12.08955
G1 X32.556 Y127.634 E12.10026
G1 X32.369 Y127.178 E12.11666
G1 X32.067 Y126.29 E12.14785
G1 X31.924 Y125.756 E12.16624
G1 X31.865 Y125.51 E12.17465
G1 X31.633 Y124.194 E12.2191
G1 X31.593 Y123.844 E12.23081
G1 X31.524 Y122.802 E12.26555
G1 X31.508 Y121.951 E12.29386
G1 X31.508 Y121.53 E12.30786
G1 X31.514 Y121.222 E12.31811
G1 X31.568 Y120.328 E12.34789
G1 X31.646 Y119.556 E12.3737
G1 X31.875 Y116.924 E12.46157
G1 X32.022 Y114.43 E12.54467
G1 X32.098 Y111.906 E12.62865
G1 X32.104 Y109.382 E12.7126
G1 X32.038 Y106.87 E12.79618
G1 X31.901 Y104.37 E12.87946
G1 X31.69 Y101.831 E12.9642
G1 X31.584 Y100.821 E12.99797
G1 X31.526 Y99.896 E13.0288
G1 X31.502 Y98.706 E13.06839
G1 X31.5 Y98.484 E13.07577
G1 X31.501 Y88.051 E13.42277
G1 X31.511 Y87.345 E13.44626
G1 X31.528 Y86.864 E13.46227
G1 X31.562 Y86.369 E13.47877
G1 X31.593 Y86.03 E13.49009
G1 X31.786 Y84.749 E13.53318
G1 X31.821 Y84.584 E13.53879
G1 X31.936 Y84.099 E13.55537
G1 X32.014 Y83.799 E13.56568
G1 X32.379 Y82.654 E13.60565
G1 X32.43 Y82.52 E13.61042
G1 X32.614 Y82.068 E13.62665
G1 X32.745 Y81.765 E13.63763
G1 X33.307 Y80.645 E13.6793
G1 X33.372 Y80.532 E13.68364
G1 X33.628 Y80.109 E13.70009
G1 X33.798 Y79.842 E13.71061
G1 X34.493 Y78.871 E13.75033
G1 X34.61 Y78.725 E13.75655
G1 X34.937 Y78.336 E13.77345
G1 X35.128 Y78.119 E13.78307
G1 X35.986 Y77.248 E13.82373
G1 X36.107 Y77.138 E13.82917
G1 X36.518 Y76.782 E13.84726
G1 X36.766 Y76.578 E13.85794
G1 X37.728 Y75.871 E13.89765
G1 X37.841 Y75.797 E13.90214
G1 X38.263 Y75.534 E13.91868
G1 X38.54 Y75.37 E13.92938
G0 F6000 X38.744 Y75.714
G1 F1200 X39.783 Y75.174 E13.96833
G1 X39.927 Y75.109 E13.97358
G1 X40.41 Y74.905 E13.99102
G1 X40.7 Y74.791 E14.00139
G1 X41.795 Y74.428 E14.03976
G1 X41.942 Y74.388 E14.04482
G1 X42.383 Y74.278 E14.05994
G1 X42.692 Y74.208 E14.07048
G1 X43.881 Y74.009 E14.11057
G1 X44.009 Y73.995 E14.11486
G1 X44.495 Y73.953 E14.13108
G1 X44.844 Y73.931 E14.14271
G1 X45.229 Y73.913 E14.15553
G1 X45.524 Y73.906 E14.16535
G1 X46.096 Y73.9 E14.18437
G1 X48.793 Y73.9 E14.27407
G1 X49.649 Y73.911 E14.30255
G1 X49.991 Y73.921 E14.31393
G1 X50.12 Y73.927 E14.31822
G1 X50.585 Y73.959 E14.33373
G1 X50.927 Y73.99 E14.34515
G1 X52.157 Y74.175 E14.38652
G1 X52.304 Y74.206 E14.39151
G1 X52.779 Y74.318 E14.40775
G1 X53.095 Y74.4 E14.4186
G1 X54.172 Y74.741 E14.45618
G1 X54.302 Y74.79 E14.4608
G1 X54.771 Y74.98 E14.47763
G1 X55.06 Y75.105 E14.4881
G1 X55.568 Y75.341 E14.50673
G1 X56.029 Y75.572 E14.52388
G1 X57.783 Y76.479 E14.58956
G1 X60.047 Y77.569 E14.67313
G1 X62.388 Y78.616 E14.75843
G1 X64.725 Y79.584 E14.84256
G1 X67.091 Y80.487 E14.92679
G1 X69.478 Y81.318 E15.01086
G1 X71.862 Y82.075 E15.09405
G1 X74.301 Y82.774 E15.17844
G1 X76.769 Y83.407 E15.26318
G1 X79.208 Y83.959 E15.34635
G1 X81.717 Y84.454 E15.43141
G1 X84.189 Y84.868 E15.51477
G1 X86.675 Y85.213 E15.59825
G1 X89.224 Y85.493 E15.68354
G1 X91.74 Y85.698 E15.7675
G1 X94.227 Y85.83 E15.85034
G1 X97.83 Y85.9 E15.97019
G1 X122.186 Y85.9 E16.78028
G1 X124.811 Y85.863 E16.8676
G1 X127.319 Y85.756 E16.95109
G1 X129.836 Y85.578 E17.03501
G1 X132.36 Y85.328 E17.11937
G1 X134.868 Y85.007 E17.20347
G1 X137.33 Y84.62 E17.28636
G1 X139.852 Y84.151 E17.37168
G1 X142.326 Y83.619 E17.45585
G1 X144.774 Y83.019 E17.53968
G1 X147.197 Y82.352 E17.62326
G1 X149.631 Y81.607 E17.70793
G1 X152.056 Y80.789 E17.79305
G1 X154.373 Y79.934 E17.87519
G1 X156.77 Y78.972 E17.9611
G1 X159.069 Y77.972 E18.04448
G1 X161.347 Y76.903 E18.12818
G1 X163.542 Y75.799 E18.2099
G1 X164.232 Y75.44 E18.23577
G1 X164.806 Y75.163 E18.25696
G1 X164.965 Y75.092 E18.26276
G1 X165.391 Y74.913 E18.27813
G1 X165.682 Y74.798 E18.28853
G1 X166.795 Y74.428 E18.32754
G1 X166.942 Y74.388 E18.33261
G1 X167.383 Y74.278 E18.34773
G1 X167.692 Y74.208 E18.35826
G1 X168.881 Y74.009 E18.39836
G1 X169.009 Y73.995 E18.40264
G1 X169.495 Y73.953 E18.41887
G1 X169.844 Y73.931 E18.4305
G1 X170.229 Y73.913 E18.44332
G1 X170.524 Y73.906 E18.45313
G1 X171.096 Y73.9 E18.47216
G1 X173.943 Y73.901 E18.56685
G1 X174.649 Y73.911 E18.59033
G1 X174.991 Y73.921 E18.60171
G1 X175.12 Y73.927 E18.60601
G1 X175.585 Y73.959 E18.62151
G1 X175.927 Y73.99 E18.63293
G1 X177.157 Y74.175 E18.6743
G1 X177.304 Y74.206 E18.6793
G1 X177.779 Y74.318 E18.69553
G1 X178.095 Y74.4 E18.70639
G1 X179.172 Y74.741 E18.74396
G1 X179.302 Y74.79 E18.74859
G1 X179.777 Y74.983 E18.76564
G1 X180.084 Y75.116 E18.77677
G1 X181.184 Y75.67 E18.81773
G1 X181.291 Y75.732 E18.82184
G1 X181.651 Y75.95 E18.83584
G1 X181.924 Y76.123 E18.84659
G1 X182.879 Y76.805 E18.88562
G1 X183.025 Y76.922 E18.89185
G1 X183.384 Y77.224 E18.90745
G1 X183.595 Y77.409 E18.91678
G1 X184.426 Y78.222 E18.95545
G1 X184.534 Y78.34 E18.96077
G1 X184.892 Y78.752 E18.97892
G1 X185.104 Y79.009 E18.99
G1 X185.787 Y79.934 E19.02825
G1 X185.854 Y80.036 E19.03231
G1 X186.108 Y80.444 E19.04829
G1 X186.279 Y80.732 E19.05943
G1 X186.826 Y81.783 E19.09884
G1 X186.891 Y81.927 E19.10409
G1 X187.095 Y82.41 E19.12153
G1 X187.209 Y82.7 E19.1319
G1 X187.572 Y83.795 E19.17026
G1 X187.612 Y83.942 E19.17533
G1 X187.721 Y84.379 E19.19031
G1 X187.79 Y84.683 E19.20068
G1 X187.986 Y85.841 E19.23974
G1 X188.001 Y85.974 E19.24419
G1 X188.047 Y86.493 E19.26152
G1 X188.069 Y86.841 E19.27312
G1 X188.086 Y87.207 E19.28531
G1 X188.094 Y87.52 E19.29572
G1 X188.1 Y88.096 E19.31488
G1 X188.101 Y98.784 E19.67037
G1 X188.089 Y99.645 E19.69901
G1 X188.074 Y100.09 E19.71381
G1 X188.042 Y100.544 E19.72895
G1 X187.895 Y102.142 E19.78233
G1 X187.877 Y102.307 E19.78785
G1 X187.679 Y104.835 E19.87219
G1 X187.554 Y107.342 E19.95567
G1 X187.5 Y109.882 E20.04017
G1 X187.517 Y112.398 E20.12386
G1 X187.606 Y114.942 E20.20852
G1 X187.767 Y117.487 E20.29334
G1 X187.982 Y119.842 E20.37199
G1 X188.028 Y120.285 E20.38681
G1 X188.085 Y121.221 E20.41799
G1 X188.096 Y121.921 E20.44128
G1 X188.096 Y122.238 E20.45182
G1 X188.089 Y122.732 E20.46825
G1 X188.064 Y123.318 E20.48776
G1 X188.048 Y123.548 E20.49543
G1 X187.872 Y124.872 E20.53986
G1 X187.829 Y125.089 E20.54721
G1 X187.616 Y125.967 E20.57726
G1 X187.601 Y126.019 E20.57906
G1 X187.186 Y127.192 E20.62045
G1 X187 Y127.634 E20.6364
G1 X186.607 Y128.467 E20.66703
G1 X186.328 Y128.962 E20.68593
G1 X186.218 Y129.146 E20.69306
G1 X185.712 Y129.915 E20.72368
G1 X185.383 Y130.347 E20.74174
G1 X185.338 Y130.403 E20.74413
G1 X185.013 Y130.788 E20.76088
G1 X184.859 Y130.962 E20.76861
G1 X184.024 Y131.805 E20.80808
G1 X183.952 Y131.87 E20.8113
G1 X183.589 Y132.183 E20.82725
G1 X183.396 Y132.342 E20.83556
G1 X182.661 Y132.896 E20.86618
G1 X182.115 Y133.247 E20.88776
G1 X181.882 Y133.387 E20.8968
G1 X180.685 Y134.007 E20.94164
G1 X180.414 Y134.126 E20.95149
G1 X179.556 Y134.459 E20.9821
G1 X178.956 Y134.643 E21.00297
G1 X178.719 Y134.708 E21.01114
G1 X177.821 Y134.912 E21.04177
G1 X177.011 Y135.028 E21.06899
G1 X176.511 Y135.08 E21.08571
G1 X175.541 Y135.136 E21.11802
G1 X174.911 Y135.143 E21.13898
G1 X45.086 Y135.142 E25.45698
G1 X44.381 Y135.132 E25.48043
G1 X43.684 Y135.099 E25.50363
G1 X43.422 Y135.078 E25.51238
G1 X42.508 Y134.965 E25.54301
G1 X41.704 Y134.797 E25.57033
G1 X41.323 Y134.702 E25.58339
G1 X40.386 Y134.422 E25.61591
G1 X40.066 Y134.31 E25.62719
G1 X39.211 Y133.968 E25.65782
G1 X38.371 Y133.544 E25.68911
G1 X37.902 Y133.267 E25.70723
G1 X37.718 Y133.152 E25.71445
G1 X36.959 Y132.63 E25.74509
G1 X36.446 Y132.218 E25.76697
G1 X36.287 Y132.082 E25.77393
G1 X35.419 Y131.251 E25.8139
G1 X35.135 Y130.946 E25.82776
G1 X34.538 Y130.245 E25.85838
G1 X33.985 Y129.468 E25.8901
G1 X33.856 Y129.268 E25.89802
G1 X33.391 Y128.473 E25.92865
G1 X33.052 Y127.769 E25.95464
G1 X32.923 Y127.474 E25.96535
G1 X32.742 Y127.033 E25.9812
G1 X32.446 Y126.161 E26.01183
G1 X32.313 Y125.663 E26.02897
G1 X32.254 Y125.417 E26.03739
G1 X32.031 Y124.149 E26.08021
G1 X31.991 Y123.799 E26.09193
G1 X31.924 Y122.794 E26.12543
G1 X31.908 Y121.943 E26.15374
G1 X31.908 Y121.538 E26.16721
G1 X31.914 Y121.23 E26.17745
G1 X31.966 Y120.368 E26.20618
G1 X32.048 Y119.556 E26.23332
G1 X32.272 Y116.984 E26.31919
G1 X32.422 Y114.429 E26.40431
G1 X32.498 Y111.92 E26.4878
G1 X32.504 Y109.372 E26.57255
G1 X32.438 Y106.873 E26.6557
G1 X32.3 Y104.352 E26.73967
G1 X32.084 Y101.754 E26.82638
G1 X31.982 Y100.779 E26.85898
G1 X31.926 Y99.888 E26.88868
G1 X31.902 Y98.698 E26.92826
G1 X31.9 Y98.484 E26.93538
G1 X31.901 Y88.057 E27.28219
G1 X31.911 Y87.351 E27.30567
G1 X31.921 Y87.012 E27.31695
G1 X31.927 Y86.882 E27.32128
G1 X31.96 Y86.406 E27.33715
G1 X31.991 Y86.067 E27.34847
G1 X32.178 Y84.832 E27.39002
G1 X32.213 Y84.667 E27.39563
G1 X32.323 Y84.2 E27.41158
G1 X32.401 Y83.9 E27.42189
G1 X32.753 Y82.797 E27.4604
G1 X32.804 Y82.663 E27.46517
G1 X32.981 Y82.226 E27.48085
G1 X33.112 Y81.923 E27.49183
G1 X33.654 Y80.845 E27.53196
G1 X33.719 Y80.732 E27.5363
G1 X33.966 Y80.324 E27.55216
G1 X34.136 Y80.057 E27.56269
G1 X34.805 Y79.121 E27.60095
G1 X34.922 Y78.975 E27.60718
