;FLAVOR:Marlin
;TIME:3275
;Filament used: 2.94546m
;Layer height: 0.28
;MINX:55.033
;MINY:60
;MINZ:0.28
;MAXX:164.967
;MAXY:144.559
;MAXZ:2.8
;Generated with Cura_SteamEngine 4.8.0
M140 S60
M105
M190 S60
M104 S200
M105
M109 S200
M82 ;absolute extrusion mode
; Ender 3 Custom Start G-code
G92 E0 ; Reset Extruder
G28 ; Home all axes
G1 Z2.0 F3000 ; Move Z Axis up little to prevent scratching of Heat Bed
G1 X0.1 Y20 Z0.3 F5000.0 ; Move to start position
G1 X0.1 Y200.0 Z0.3 F1500.0 E15 ; Draw the first line
G1 X0.4 Y200.0 Z0.3 F5000.0 ; Move to side a little
G1 X0.4 Y20 Z0.3 F1500.0 E30 ; Draw the second line
G92 E0 ; Reset Extruder
G1 Z2.0 F3000 ; Move Z Axis up little to prevent scratching of Heat Bed
G1 X5 Y20 Z0.3 F5000.0 ; Move over to prevent blob squish
G92 E0
G92 E0
G1 F1500 E-6.5
;LAYER_COUNT:10
;LAYER:0
M107
G0 F6000 X59.749 Y64.075 Z0.28
;TYPE:SKIRT
G1 F1500 E0
G1 F1200 X60.448 Y63.451 E0.04363
G1 X60.962 Y63.055 E0.07384
G1 X61.333 Y62.786 E0.09518
G1 X61.632 Y62.576 E0.1122
G1 X61.82 Y62.449 E0.12276
G1 X62.619 Y61.958 E0.16643
G1 X63.14 Y61.685 E0.19382
G1 X63.577 Y61.471 E0.21647
G1 X63.998 Y61.276 E0.23808
G1 X64.201 Y61.187 E0.2484
G1 X65.075 Y60.847 E0.29207
G1 X65.573 Y60.691 E0.31637
G1 X66 Y60.568 E0.33706
G1 X66.313 Y60.483 E0.35216
G1 X66.547 Y60.423 E0.36341
G1 X67.464 Y60.229 E0.40706
G1 X68.142 Y60.137 E0.43892
G1 X68.604 Y60.089 E0.46054
G1 X68.908 Y60.062 E0.47475
G1 X69.145 Y60.044 E0.48582
G1 X69.813 Y60.013 E0.51696
G1 X70.777 Y60 E0.56185
G1 X149.292 Y60 E4.21784
G1 X150.154 Y60.011 E4.25798
G1 X150.56 Y60.024 E4.2769
G1 X150.775 Y60.035 E4.28692
G1 X151.225 Y60.068 E4.30793
G1 X151.528 Y60.096 E4.3221
G1 X152.861 Y60.302 E4.38491
G1 X153.576 Y60.458 E4.41898
G1 X154.483 Y60.697 E4.46266
G1 X155.147 Y60.926 E4.49536
G1 X155.336 Y60.998 E4.50478
G1 X155.792 Y61.183 E4.5277
G1 X156.196 Y61.358 E4.5482
G1 X157.31 Y61.917 E4.60623
G1 X157.456 Y62.001 E4.61408
G1 X157.851 Y62.24 E4.63558
G1 X158.224 Y62.476 E4.65613
G1 X159.203 Y63.173 E4.71209
G1 X159.376 Y63.311 E4.72239
G1 X159.793 Y63.661 E4.74774
G1 X160.09 Y63.923 E4.76618
G1 X160.9 Y64.715 E4.81893
G1 X161.042 Y64.869 E4.82869
G1 X161.451 Y65.339 E4.8577
G1 X161.729 Y65.677 E4.87808
G1 X162.422 Y66.617 E4.93246
G1 X162.524 Y66.772 E4.9411
G1 X162.803 Y67.22 E4.96567
G1 X163.023 Y67.592 E4.9858
G1 X163.593 Y68.693 E5.04353
G1 X163.675 Y68.876 E5.05287
G1 X163.859 Y69.311 E5.07486
G1 X164.016 Y69.706 E5.09465
G1 X164.413 Y70.899 E5.1532
G1 X164.463 Y71.084 E5.16212
G1 X164.579 Y71.552 E5.18457
G1 X164.677 Y71.99 E5.20547
G1 X164.877 Y73.197 E5.26244
G1 X164.897 Y73.38 E5.27101
G1 X164.94 Y73.874 E5.2941
G1 X164.967 Y74.297 E5.31384
G1 X164.967 Y75.694 E5.37889
G1 X164.95 Y75.962 E5.39139
G1 X164.916 Y76.377 E5.41078
G1 X164.875 Y76.781 E5.42969
G1 X164.74 Y77.709 E5.47336
G1 X164.595 Y78.367 E5.50473
G1 X164.485 Y78.802 E5.52562
G1 X164.361 Y79.262 E5.54781
G1 X164.073 Y80.155 E5.5915
G1 X163.793 Y80.841 E5.626
G1 X163.596 Y81.28 E5.64841
G1 X163.386 Y81.725 E5.67132
G1 X162.945 Y82.553 E5.715
G1 X162.575 Y83.138 E5.74723
G1 X162.319 Y83.516 E5.76849
G1 X162.135 Y83.78 E5.78347
G1 X161.975 Y84.002 E5.79622
G1 X161.776 Y84.268 E5.81169
G1 X161.339 Y84.836 E5.84506
G1 X160.433 Y85.984 E5.91315
G1 X158.914 Y88.024 E6.03159
G1 X157.484 Y90.063 E6.14755
G1 X156.091 Y92.176 E6.2654
G1 X154.763 Y94.316 E6.38267
G1 X153.499 Y96.49 E6.49977
G1 X152.289 Y98.712 E6.61758
G1 X151.158 Y100.94 E6.73393
G1 X150.077 Y103.224 E6.85159
G1 X149.068 Y105.522 E6.96846
G1 X148.111 Y107.878 E7.08687
G1 X147.246 Y110.205 E7.20247
G1 X146.427 Y112.606 E7.32059
G1 X145.678 Y115.018 E7.4382
G1 X145.005 Y117.433 E7.55493
G1 X144.397 Y119.876 E7.67216
G1 X143.852 Y122.357 E7.79044
G1 X143.391 Y124.8 E7.9062
G1 X142.993 Y127.28 E8.02316
G1 X142.663 Y129.789 E8.141
G1 X142.416 Y132.159 E8.25195
G1 X142.252 Y133.222 E8.30204
G1 X142.224 Y133.359 E8.30855
G1 X142.117 Y133.832 E8.33113
G1 X142.035 Y134.159 E8.34683
G1 X141.665 Y135.345 E8.40468
G1 X141.617 Y135.473 E8.41104
G1 X141.416 Y135.972 E8.43609
G1 X141.321 Y136.192 E8.44725
G1 X140.715 Y137.389 E8.50972
G1 X140.424 Y137.886 E8.53654
G1 X139.916 Y138.674 E8.5802
G1 X139.512 Y139.211 E8.61149
G1 X139.435 Y139.307 E8.61722
G1 X139.114 Y139.688 E8.64042
G1 X138.888 Y139.945 E8.65635
G1 X138.061 Y140.79 E8.71141
G1 X137.977 Y140.867 E8.71671
G1 X137.557 Y141.232 E8.74262
G1 X137.296 Y141.448 E8.7584
G1 X136.31 Y142.176 E8.81547
G1 X136.168 Y142.269 E8.82337
G1 X135.748 Y142.531 E8.84642
G1 X135.483 Y142.688 E8.86077
G1 X134.344 Y143.276 E8.92045
G1 X134.191 Y143.344 E8.92825
G1 X133.777 Y143.518 E8.94916
G1 X133.497 Y143.629 E8.96319
G1 X132.35 Y144.012 E9.01949
G1 X132.204 Y144.052 E9.02654
G1 X131.68 Y144.182 E9.05168
G1 X131.369 Y144.251 E9.06652
G1 X130.253 Y144.439 E9.11921
G1 X130.115 Y144.455 E9.12568
G1 X129.54 Y144.506 E9.15256
G1 X128.964 Y144.54 E9.17943
G1 X128.817 Y144.546 E9.18628
G1 X128.481 Y144.554 E9.20193
G1 X127.98 Y144.559 E9.22526
G1 X85.073 Y144.558 E11.22319
G1 X84.367 Y144.548 E11.25607
G1 X84.049 Y144.539 E11.27088
G1 X83.91 Y144.533 E11.27736
G1 X83.364 Y144.496 E11.30284
G1 X83.042 Y144.466 E11.3179
G1 X81.846 Y144.287 E11.37421
G1 X81.671 Y144.251 E11.38253
G1 X81.126 Y144.125 E11.40858
G1 X80.829 Y144.048 E11.42286
G1 X79.684 Y143.683 E11.47882
G1 X79.555 Y143.634 E11.48525
G1 X79.103 Y143.451 E11.50796
G1 X78.804 Y143.322 E11.52312
G1 X77.67 Y142.753 E11.5822
G1 X77.552 Y142.685 E11.58854
G1 X77.159 Y142.447 E11.60993
G1 X76.87 Y142.264 E11.62586
G1 X75.873 Y141.552 E11.68291
G1 X75.772 Y141.471 E11.68894
G1 X75.37 Y141.133 E11.71339
G1 X75.112 Y140.905 E11.72943
G1 X74.248 Y140.052 E11.78596
G1 X74.17 Y139.966 E11.79137
G1 X73.843 Y139.589 E11.8146
G1 X73.632 Y139.334 E11.83002
G1 X72.907 Y138.351 E11.88689
G1 X72.81 Y138.203 E11.89513
G1 X72.546 Y137.779 E11.91839
G1 X72.392 Y137.519 E11.93246
G1 X71.79 Y136.35 E11.99369
G1 X71.723 Y136.198 E12.00142
G1 X71.563 Y135.815 E12.02075
G1 X71.452 Y135.535 E12.03477
G1 X71.069 Y134.388 E12.09108
G1 X71.029 Y134.242 E12.09813
G1 X70.913 Y133.777 E12.12045
G1 X70.844 Y133.474 E12.13492
G1 X70.634 Y132.23 E12.19366
G1 X70.618 Y132.084 E12.2005
G1 X70.575 Y131.576 E12.22424
G1 X70.541 Y131.004 E12.25092
G1 X70.535 Y130.858 E12.25773
G1 X70.527 Y130.519 E12.27352
G1 X70.522 Y130.017 E12.29689
G1 X70.522 Y129.718 E12.31082
G1 X70.485 Y127.11 E12.43227
G1 X70.378 Y124.589 E12.54976
G1 X70.201 Y122.094 E12.66623
G1 X69.954 Y119.599 E12.78298
G1 X69.634 Y117.098 E12.90038
G1 X69.243 Y114.609 E13.0177
G1 X68.781 Y112.126 E13.13531
G1 X68.255 Y109.681 E13.25176
G1 X67.65 Y107.211 E13.37017
G1 X66.988 Y104.805 E13.48637
G1 X66.247 Y102.387 E13.60413
G1 X65.44 Y99.995 E13.72168
G1 X64.577 Y97.655 E13.83781
G1 X63.633 Y95.302 E13.95587
G1 X62.636 Y93.01 E14.07225
G1 X61.55 Y90.696 E14.19128
G1 X60.429 Y88.469 E14.30737
G1 X59.229 Y86.247 E14.42496
G1 X57.959 Y84.046 E14.54329
G1 X57.481 Y83.26 E14.58613
G1 X56.978 Y82.41 E14.63212
G1 X56.407 Y81.306 E14.68999
G1 X56.325 Y81.123 E14.69933
G1 X56.146 Y80.702 E14.72063
G1 X55.986 Y80.301 E14.74074
G1 X55.578 Y79.073 E14.80099
G1 X55.53 Y78.894 E14.80962
G1 X55.422 Y78.453 E14.83076
G1 X55.328 Y78.034 E14.85076
G1 X55.132 Y76.87 E14.90572
G1 X55.109 Y76.668 E14.91519
G1 X55.06 Y76.126 E14.94053
G1 X55.033 Y75.704 E14.96022
G1 X55.033 Y74.308 E15.02522
G1 X55.05 Y74.039 E15.03777
G1 X55.084 Y73.622 E15.05725
G1 X55.125 Y73.218 E15.07616
G1 X55.26 Y72.29 E15.11983
G1 X55.406 Y71.626 E15.15149
G1 X55.516 Y71.192 E15.17233
G1 X55.639 Y70.738 E15.19424
G1 X55.927 Y69.845 E15.23793
G1 X56.207 Y69.159 E15.27243
G1 X56.404 Y68.72 E15.29483
G1 X56.614 Y68.275 E15.31775
G1 X57.055 Y67.447 E15.36143
G1 X57.425 Y66.862 E15.39366
G1 X57.683 Y66.481 E15.41509
G1 X57.867 Y66.218 E15.43003
G1 X58.014 Y66.014 E15.44174
G1 X58.594 Y65.277 E15.48541
G1 X59.045 Y64.784 E15.51652
G1 X59.342 Y64.478 E15.53638
G1 X59.565 Y64.254 E15.5511
G1 X59.749 Y64.075 E15.56305
G0 F6000 X60.028 Y64.362
G1 F1200 X60.715 Y63.749 E15.60592
G1 X61.197 Y63.378 E15.63425
G1 X61.568 Y63.109 E15.65558
G1 X61.856 Y62.907 E15.67197
G1 X62.044 Y62.78 E15.68253
G1 X62.829 Y62.299 E15.7254
G1 X63.316 Y62.044 E15.751
G1 X63.753 Y61.83 E15.77365
G1 X64.159 Y61.642 E15.79449
G1 X64.362 Y61.553 E15.80481
G1 X65.22 Y61.22 E15.84766
G1 X65.684 Y61.075 E15.8703
G1 X66.111 Y60.952 E15.89099
G1 X66.412 Y60.87 E15.90552
G1 X66.646 Y60.81 E15.91677
G1 X67.547 Y60.62 E15.95964
G1 X68.184 Y60.535 E15.98957
G1 X68.646 Y60.487 E16.0112
G1 X68.938 Y60.46 E16.02485
G1 X69.175 Y60.442 E16.03592
G1 X69.819 Y60.413 E16.06594
G1 X70.777 Y60.4 E16.11055
G1 X149.292 Y60.4 E19.76654
G1 X150.148 Y60.411 E19.8064
G1 X150.54 Y60.424 E19.82466
G1 X150.755 Y60.435 E19.83469
G1 X151.188 Y60.466 E19.8549
G1 X151.491 Y60.494 E19.86907
G1 X152.776 Y60.693 E19.92962
G1 X153.491 Y60.849 E19.96369
G1 X154.381 Y61.084 E20.00656
G1 X155.005 Y61.299 E20.03729
G1 X155.194 Y61.371 E20.04671
G1 X155.633 Y61.55 E20.06878
G1 X156.037 Y61.725 E20.08928
G1 X157.11 Y62.264 E20.1452
G1 X157.256 Y62.348 E20.15304
G1 X157.638 Y62.578 E20.1738
G1 X158.011 Y62.814 E20.19435
G1 X158.953 Y63.485 E20.24821
G1 X159.126 Y63.623 E20.25851
G1 X159.528 Y63.961 E20.28297
G1 X159.825 Y64.223 E20.30141
G1 X160.606 Y64.986 E20.35225
G1 X160.748 Y65.14 E20.36201
G1 X161.142 Y65.593 E20.38996
G1 X161.42 Y65.931 E20.41034
G1 X162.088 Y66.837 E20.46275
G1 X162.19 Y66.992 E20.47139
G1 X162.459 Y67.423 E20.49505
G1 X162.679 Y67.795 E20.51518
G1 X163.228 Y68.857 E20.57084
G1 X163.31 Y69.04 E20.58018
G1 X163.487 Y69.459 E20.60136
G1 X163.644 Y69.854 E20.62115
G1 X164.027 Y71.003 E20.67755
G1 X164.077 Y71.188 E20.68647
G1 X164.188 Y71.64 E20.70815
G1 X164.286 Y72.078 E20.72905
G1 X164.479 Y73.24 E20.78389
G1 X164.499 Y73.423 E20.79247
G1 X164.54 Y73.9 E20.81476
G1 X164.567 Y74.323 E20.8345
G1 X164.568 Y75.669 E20.89717
G1 X164.551 Y75.937 E20.90968
G1 X164.518 Y76.336 E20.92832
G1 X164.477 Y76.74 E20.94723
G1 X164.344 Y77.651 E20.9901
G1 X164.208 Y78.269 E21.01956
G1 X164.098 Y78.704 E21.04045
G1 X163.975 Y79.156 E21.06227
G1 X163.692 Y80.032 E21.10513
G1 X163.428 Y80.677 E21.13758
G1 X163.231 Y81.116 E21.15999
G1 X163.025 Y81.552 E21.18244
G1 X162.592 Y82.364 E21.22529
G1 X162.244 Y82.914 E21.2556
G1 X161.988 Y83.292 E21.27686
G1 X161.81 Y83.546 E21.2913
G1 X161.65 Y83.768 E21.30404
G1 X161.459 Y84.025 E21.31895
G1 X161.025 Y84.588 E21.35205
G1 X160.114 Y85.743 E21.42055
G1 X158.611 Y87.762 E21.53775
G1 X157.139 Y89.859 E21.65706
G1 X155.75 Y91.967 E21.77461
G1 X154.42 Y94.11 E21.89205
G1 X153.152 Y96.292 E22.00956
G1 X151.947 Y98.504 E22.12685
G1 X150.783 Y100.796 E22.24655
G1 X149.72 Y103.041 E22.36222
G1 X148.689 Y105.39 E22.48167
G1 X147.741 Y107.724 E22.59897
G1 X146.863 Y110.084 E22.71622
G1 X146.053 Y112.463 E22.83324
G1 X145.3 Y114.888 E22.95148
G1 X144.615 Y117.343 E23.07016
G1 X144.004 Y119.799 E23.18801
G1 X143.463 Y122.262 E23.30543
G1 X142.997 Y124.729 E23.42233
G1 X142.595 Y127.235 E23.54052
G1 X142.267 Y129.727 E23.65755
G1 X142.018 Y132.118 E23.76949
G1 X141.86 Y133.142 E23.81774
G1 X141.832 Y133.279 E23.82425
G1 X141.729 Y133.734 E23.84597
G1 X141.647 Y134.061 E23.86167
G1 X141.29 Y135.205 E23.91747
G1 X141.242 Y135.333 E23.92384
G1 X141.048 Y135.813 E23.94795
G1 X140.953 Y136.033 E23.9591
G1 X140.369 Y137.187 E24.01933
G1 X140.078 Y137.684 E24.04615
G1 X139.579 Y138.457 E24.08899
G1 X139.2 Y138.96 E24.11831
G1 X139.123 Y139.056 E24.12404
G1 X138.814 Y139.424 E24.14642
G1 X138.588 Y139.681 E24.16236
G1 X137.791 Y140.495 E24.2154
G1 X137.707 Y140.572 E24.22071
G1 X137.302 Y140.924 E24.24569
G1 X137.041 Y141.14 E24.26147
G1 X136.091 Y141.841 E24.31644
G1 X135.949 Y141.934 E24.32435
G1 X135.544 Y142.187 E24.34658
G1 X135.279 Y142.344 E24.36093
G1 X134.181 Y142.91 E24.41845
G1 X134.028 Y142.978 E24.42624
G1 X133.629 Y143.146 E24.4464
G1 X133.349 Y143.257 E24.46043
G1 X132.244 Y143.626 E24.51467
G1 X132.098 Y143.666 E24.52172
G1 X131.593 Y143.791 E24.54595
G1 X131.282 Y143.86 E24.56078
G1 X130.207 Y144.041 E24.61154
G1 X130.069 Y144.057 E24.61801
G1 X129.515 Y144.107 E24.64391
G1 X129.182 Y144.128 E24.65945
G1 X128.8 Y144.146 E24.67726
G1 X128.477 Y144.154 E24.6923
G1 X127.98 Y144.159 E24.71544
G1 X85.079 Y144.158 E26.7131
G1 X84.373 Y144.148 E26.74597
G1 X83.927 Y144.133 E26.76675
G1 X83.401 Y144.097 E26.7913
G1 X83.079 Y144.067 E26.80636
G1 X81.926 Y143.896 E26.86064
G1 X81.751 Y143.86 E26.86896
G1 X81.227 Y143.738 E26.89401
G1 X80.93 Y143.661 E26.90829
G1 X79.826 Y143.309 E26.96225
G1 X79.697 Y143.26 E26.96868
G1 X79.262 Y143.084 E26.99053
G1 X78.963 Y142.955 E27.00569
G1 X77.869 Y142.406 E27.06269
G1 X77.751 Y142.338 E27.06903
G1 X77.373 Y142.11 E27.08958
G1 X77.084 Y141.927 E27.10551
G1 X76.123 Y141.24 E27.16052
G1 X76.022 Y141.159 E27.16655
G1 X75.635 Y140.833 E27.19011
G1 X75.377 Y140.605 E27.20614
G1 X74.544 Y139.783 E27.26063
G1 X74.466 Y139.697 E27.26604
G1 X74.151 Y139.334 E27.28842
G1 X73.94 Y139.079 E27.30383
G1 X73.241 Y138.132 E27.35864
G1 X73.144 Y137.984 E27.36688
G1 X72.89 Y137.575 E27.3893
G1 X72.736 Y137.315 E27.40337
G1 X72.156 Y136.188 E27.46239
G1 X72.089 Y136.036 E27.47012
G1 X71.935 Y135.667 E27.48874
G1 X71.824 Y135.387 E27.50277
G1 X71.455 Y134.282 E27.55701
G1 X71.415 Y134.136 E27.56406
G1 X71.303 Y133.689 E27.58552
G1 X71.234 Y133.386 E27.59999
G1 X71.032 Y132.187 E27.65661
G1 X71.016 Y132.041 E27.66345
G1 X70.974 Y131.551 E27.68635
G1 X70.953 Y131.217 E27.70193
G1 X70.935 Y130.841 E27.71946
G1 X70.927 Y130.515 E27.73464
G1 X70.922 Y130.017 E27.75783
G1 X70.922 Y129.712 E27.77203
G1 X70.885 Y127.085 E27.89437
G1 X70.778 Y124.579 E28.01117
G1 X70.6 Y122.059 E28.1288
G1 X70.351 Y119.545 E28.24644
G1 X70.032 Y117.056 E28.36328
G1 X69.631 Y114.504 E28.48357
G1 X69.18 Y112.081 E28.59834
G1 X68.641 Y109.573 E28.71778
G1 X68.047 Y107.149 E28.834
G1 X67.361 Y104.655 E28.95444
G1 X66.633 Y102.279 E29.07015
G1 X65.819 Y99.865 E29.18878
G1 X64.952 Y97.515 E29.30541
G1 X63.994 Y95.129 E29.42514
G1 X62.994 Y92.83 E29.54188
G1 X61.926 Y90.554 E29.65894
G1 X60.787 Y88.291 E29.77691
G1 X59.571 Y86.039 E29.89609
G1 X58.327 Y83.882 E30.01203
G1 X57.894 Y83.171 E30.0508
G1 X57.323 Y82.206 E30.10301
G1 X56.772 Y81.142 E30.1588
G1 X56.69 Y80.959 E30.16814
G1 X56.518 Y80.553 E30.18867
G1 X56.358 Y80.152 E30.20877
G1 X55.965 Y78.969 E30.26682
G1 X55.917 Y78.79 E30.27545
G1 X55.812 Y78.365 E30.29583
G1 X55.718 Y77.946 E30.31583
G1 X55.529 Y76.825 E30.36876
G1 X55.506 Y76.623 E30.37823
G1 X55.46 Y76.101 E30.40263
G1 X55.433 Y75.679 E30.42232
G1 X55.432 Y74.333 E30.485
G1 X55.449 Y74.064 E30.49755
G1 X55.482 Y73.663 E30.51628
G1 X55.523 Y73.259 E30.53519
G1 X55.656 Y72.348 E30.57806
G1 X55.794 Y71.725 E30.60777
G1 X55.904 Y71.291 E30.62862
G1 X56.025 Y70.844 E30.65018
G1 X56.308 Y69.968 E30.69305
G1 X56.572 Y69.323 E30.7255
G1 X56.769 Y68.884 E30.74791
G1 X56.975 Y68.448 E30.77036
G1 X57.408 Y67.636 E30.81321
G1 X57.756 Y67.087 E30.84348
G1 X58.014 Y66.706 E30.86491
G1 X58.191 Y66.452 E30.87932
G1 X58.338 Y66.248 E30.89103
G1 X58.908 Y65.525 E30.9339
G1 X59.332 Y65.062 E30.96313
G1 X59.629 Y64.756 E30.98299
G1 X59.844 Y64.541 E30.99715
G1 X60.028 Y64.362 E31.0091
G0 F6000 X60.307 Y64.649
G1 F1200 X60.981 Y64.048 E31.05115
G1 X61.432 Y63.702 E31.07762
G1 X61.803 Y63.433 E31.09896
G1 X62.08 Y63.239 E31.1147
G1 X62.268 Y63.112 E31.12527
G1 X63.038 Y62.64 E31.16732
G1 X63.492 Y62.403 E31.19117
G1 X63.929 Y62.189 E31.21383
G1 X64.319 Y62.008 E31.23385
G1 X64.522 Y61.919 E31.24417
G1 X65.795 Y61.46 E31.30718
G1 X66.222 Y61.337 E31.32787
G1 X66.512 Y61.258 E31.34187
