;FLAVOR:Marlin
;TIME:5562
;Filament used: 5.56997m
;Layer height: 0.28
;MINX:54
;MINY:69
;MINZ:0.28
;MAXX:166
;MAXY:151
;MAXZ:5.88
;Generated with Cura_SteamEngine 4.8.0
M140 S60
M105
M190 S60
M104 S200
M105
M109 S200
M82 ;absolute extrusion mode
; Ender 3 Custom Start G-code
G92 E0 ; Reset Extruder
G28 ; Home all axes
G1 Z2.0 F3000 ; Move Z Axis up little to prevent scratching of Heat Bed
G1 X0.1 Y20 Z0.3 F5000.0 ; Move to start position
G1 X0.1 Y200.0 Z0.3 F1500.0 E15 ; Draw the first line
G1 X0.4 Y200.0 Z0.3 F5000.0 ; Move to side a little
G1 X0.4 Y20 Z0.3 F1500.0 E30 ; Draw the second line
G92 E0 ; Reset Extruder
G1 Z2.0 F3000 ; Move Z Axis up little to prevent scratching of Heat Bed
G1 X5 Y20 Z0.3 F5000.0 ; Move over to prevent blob squish
G92 E0
G92 E0
G1 F1500 E-6.5
;LAYER_COUNT:21
;LAYER:0
M107
G0 F6000 X59.266 Y72.078 Z0.28
;TYPE:SKIRT
G1 F1500 E0
G1 F1200 X60.228 Y71.371 E0.05559
G1 X60.341 Y71.297 E0.06188
G1 X60.763 Y71.034 E0.08503
G1 X61.04 Y70.87 E0.10002
G1 X62.118 Y70.309 E0.15661
G1 X62.262 Y70.244 E0.16397
G1 X62.764 Y70.033 E0.18932
G1 X63.054 Y69.919 E0.20383
G1 X64.19 Y69.542 E0.25957
G1 X64.337 Y69.502 E0.26666
G1 X64.795 Y69.388 E0.28864
G1 X65.104 Y69.318 E0.30339
G1 X66.338 Y69.111 E0.36165
G1 X66.466 Y69.097 E0.36765
G1 X66.97 Y69.054 E0.3912
G1 X67.319 Y69.032 E0.40749
G1 X67.714 Y69.013 E0.4259
G1 X68.019 Y69.006 E0.44011
G1 X68.596 Y69 E0.46697
G1 X151.293 Y69 E4.31769
G1 X152.155 Y69.011 E4.35784
G1 X152.51 Y69.022 E4.37437
G1 X152.639 Y69.028 E4.38039
G1 X153.121 Y69.061 E4.40288
G1 X153.463 Y69.092 E4.41887
G1 X154.74 Y69.284 E4.479
G1 X154.887 Y69.315 E4.486
G1 X155.38 Y69.431 E4.50958
G1 X155.696 Y69.513 E4.52478
G1 X156.813 Y69.867 E4.57935
G1 X156.943 Y69.916 E4.58582
G1 X157.436 Y70.115 E4.61057
G1 X157.743 Y70.248 E4.62615
G1 X158.885 Y70.824 E4.68571
G1 X158.992 Y70.886 E4.69147
G1 X159.365 Y71.113 E4.7118
G1 X159.638 Y71.286 E4.72685
G1 X160.629 Y71.993 E4.78353
G1 X160.775 Y72.11 E4.79224
G1 X161.148 Y72.423 E4.81492
G1 X161.359 Y72.608 E4.82798
G1 X162.221 Y73.452 E4.88416
G1 X162.329 Y73.57 E4.89161
G1 X162.701 Y73.997 E4.91798
G1 X162.913 Y74.254 E4.93349
G1 X163.621 Y75.215 E4.98907
G1 X163.688 Y75.317 E4.99475
G1 X163.952 Y75.74 E5.01797
G1 X164.123 Y76.028 E5.03357
G1 X164.691 Y77.118 E5.0908
G1 X164.756 Y77.262 E5.09816
G1 X164.967 Y77.764 E5.12351
G1 X165.081 Y78.054 E5.13802
G1 X165.458 Y79.19 E5.19376
G1 X165.498 Y79.337 E5.20085
G1 X165.611 Y79.79 E5.22259
G1 X165.68 Y80.094 E5.23711
G1 X165.889 Y81.347 E5.29626
G1 X165.905 Y81.495 E5.30319
G1 X165.948 Y81.991 E5.32637
G1 X165.97 Y82.343 E5.34279
G1 X165.988 Y82.769 E5.36265
G1 X165.997 Y83.149 E5.38035
G1 X166 Y83.409 E5.39245
G1 X165.999 Y136.449 E7.86222
G1 X165.989 Y137.155 E7.8951
G1 X165.978 Y137.51 E7.91164
G1 X165.972 Y137.639 E7.91765
G1 X165.938 Y138.13 E7.94057
G1 X165.907 Y138.469 E7.95642
G1 X165.725 Y139.693 E8.01404
G1 X165.694 Y139.843 E8.02117
G1 X165.569 Y140.38 E8.04684
G1 X165.487 Y140.696 E8.06205
G1 X165.133 Y141.814 E8.11665
G1 X165.087 Y141.936 E8.12272
G1 X164.893 Y142.415 E8.14679
G1 X164.757 Y142.73 E8.16276
G1 X164.193 Y143.855 E8.22136
G1 X164.128 Y143.968 E8.22743
G1 X163.872 Y144.391 E8.25046
G1 X163.702 Y144.658 E8.26519
G1 X163.007 Y145.629 E8.3208
G1 X162.89 Y145.775 E8.32951
G1 X162.579 Y146.145 E8.35202
G1 X162.395 Y146.355 E8.36502
G1 X161.558 Y147.212 E8.4208
G1 X161.437 Y147.323 E8.42844
G1 X161.007 Y147.698 E8.45501
G1 X160.754 Y147.907 E8.47029
G1 X159.757 Y148.64 E8.52791
G1 X159.642 Y148.715 E8.5343
G1 X159.218 Y148.978 E8.55754
G1 X158.938 Y149.143 E8.57267
G1 X157.899 Y149.682 E8.62717
G1 X157.758 Y149.746 E8.63438
G1 X157.236 Y149.967 E8.66078
G1 X156.946 Y150.081 E8.67529
G1 X155.81 Y150.458 E8.73102
G1 X155.663 Y150.498 E8.73812
G1 X155.205 Y150.612 E8.76009
G1 X154.896 Y150.682 E8.77485
G1 X153.662 Y150.889 E8.83311
G1 X153.534 Y150.903 E8.8391
G1 X153.03 Y150.946 E8.86266
G1 X152.681 Y150.968 E8.87894
G1 X152.286 Y150.987 E8.89736
G1 X151.981 Y150.994 E8.91156
G1 X151.404 Y151 E8.93843
G1 X68.551 Y150.999 E12.79641
G1 X67.845 Y150.989 E12.82929
G1 X67.49 Y150.978 E12.84583
G1 X67.361 Y150.972 E12.85184
G1 X66.87 Y150.938 E12.87476
G1 X66.531 Y150.907 E12.89061
G1 X65.281 Y150.72 E12.94946
G1 X65.128 Y150.688 E12.95674
G1 X64.624 Y150.57 E12.98085
G1 X64.311 Y150.489 E12.9959
G1 X63.187 Y150.133 E13.0508
G1 X63.057 Y150.084 E13.05727
G1 X62.561 Y149.883 E13.08219
G1 X62.252 Y149.749 E13.09787
G1 X61.107 Y149.171 E13.1576
G1 X60.995 Y149.106 E13.16363
G1 X60.63 Y148.885 E13.1835
G1 X60.36 Y148.714 E13.19838
G1 X59.382 Y148.016 E13.25433
G1 X59.238 Y147.901 E13.26291
G1 X58.792 Y147.525 E13.29007
G1 X58.575 Y147.332 E13.30359
G1 X57.755 Y146.523 E13.35723
G1 X57.652 Y146.41 E13.36435
G1 X57.288 Y145.989 E13.39026
G1 X57.079 Y145.735 E13.40558
G1 X56.35 Y144.741 E13.46298
G1 X56.272 Y144.621 E13.46964
G1 X56.02 Y144.214 E13.49193
G1 X55.859 Y143.941 E13.50669
G1 X55.318 Y142.899 E13.56136
G1 X55.254 Y142.758 E13.56857
G1 X55.033 Y142.236 E13.59497
G1 X54.919 Y141.946 E13.60948
G1 X54.542 Y140.81 E13.66521
G1 X54.502 Y140.663 E13.6723
G1 X54.388 Y140.205 E13.69428
G1 X54.318 Y139.896 E13.70903
G1 X54.106 Y138.614 E13.76954
G1 X54.091 Y138.471 E13.77624
G1 X54.052 Y138.007 E13.79792
G1 X54.03 Y137.654 E13.81439
G1 X54.016 Y137.371 E13.82758
G1 X54.009 Y137.179 E13.83653
G1 X54.002 Y136.871 E13.85087
G1 X54 Y136.634 E13.86191
G1 X54.001 Y83.551 E16.33368
G1 X54.011 Y82.844 E16.3666
G1 X54.022 Y82.485 E16.38332
G1 X54.028 Y82.357 E16.38929
G1 X54.061 Y81.873 E16.41188
G1 X54.092 Y81.533 E16.42778
G1 X54.286 Y80.249 E16.48824
G1 X54.321 Y80.084 E16.4961
G1 X54.436 Y79.599 E16.51931
G1 X54.514 Y79.299 E16.53374
G1 X54.867 Y78.187 E16.58807
G1 X54.916 Y78.057 E16.59454
G1 X55.115 Y77.564 E16.61929
G1 X55.248 Y77.257 E16.63487
G1 X55.807 Y76.145 E16.69283
G1 X55.872 Y76.032 E16.6989
G1 X56.128 Y75.609 E16.72192
G1 X56.298 Y75.342 E16.73666
G1 X56.993 Y74.371 E16.79226
G1 X57.11 Y74.225 E16.80097
G1 X57.437 Y73.836 E16.82463
G1 X57.628 Y73.619 E16.8381
G1 X58.486 Y72.748 E16.89503
G1 X58.607 Y72.638 E16.90264
G1 X59.018 Y72.282 E16.92796
G1 X59.266 Y72.078 E16.94291
G0 F6000 X59.52 Y72.387
G1 F1200 X60.447 Y71.705 E16.9965
G1 X60.56 Y71.631 E17.00279
G1 X60.967 Y71.378 E17.0251
G1 X61.244 Y71.214 E17.04009
G1 X62.283 Y70.674 E17.09462
G1 X62.427 Y70.609 E17.10198
G1 X62.91 Y70.405 E17.12639
G1 X63.2 Y70.291 E17.1409
G1 X64.295 Y69.928 E17.19462
G1 X64.442 Y69.888 E17.20171
G1 X64.883 Y69.778 E17.22287
G1 X65.192 Y69.708 E17.23763
G1 X66.381 Y69.509 E17.29376
G1 X66.509 Y69.495 E17.29976
G1 X66.995 Y69.453 E17.32247
G1 X67.344 Y69.431 E17.33875
G1 X67.729 Y69.413 E17.3567
G1 X68.024 Y69.406 E17.37044
G1 X68.596 Y69.4 E17.39708
G1 X151.293 Y69.4 E21.2478
G1 X152.149 Y69.411 E21.28766
G1 X152.491 Y69.421 E21.30359
G1 X152.62 Y69.427 E21.3096
G1 X153.085 Y69.459 E21.33131
G1 X153.427 Y69.49 E21.3473
G1 X154.657 Y69.675 E21.40522
G1 X154.804 Y69.706 E21.41221
G1 X155.279 Y69.818 E21.43494
G1 X155.595 Y69.9 E21.45014
G1 X156.672 Y70.241 E21.50274
G1 X156.802 Y70.29 E21.50921
G1 X157.277 Y70.483 E21.53308
G1 X157.584 Y70.616 E21.54866
G1 X158.684 Y71.17 E21.60601
G1 X158.791 Y71.232 E21.61177
G1 X159.151 Y71.45 E21.63137
G1 X159.424 Y71.623 E21.64642
G1 X160.379 Y72.305 E21.70106
G1 X160.525 Y72.422 E21.70977
G1 X160.884 Y72.724 E21.73162
G1 X161.095 Y72.909 E21.74469
G1 X161.926 Y73.722 E21.79882
G1 X162.034 Y73.84 E21.80627
G1 X162.392 Y74.252 E21.83168
G1 X162.604 Y74.509 E21.8472
G1 X163.287 Y75.434 E21.90074
G1 X163.354 Y75.536 E21.90642
G1 X163.608 Y75.944 E21.9288
G1 X163.779 Y76.232 E21.94439
G1 X164.326 Y77.283 E21.99956
G1 X164.391 Y77.427 E22.00692
G1 X164.595 Y77.91 E22.03134
G1 X164.709 Y78.2 E22.04584
G1 X165.072 Y79.295 E22.09956
G1 X165.112 Y79.442 E22.10666
G1 X165.221 Y79.879 E22.12763
G1 X165.29 Y80.183 E22.14214
G1 X165.492 Y81.39 E22.19913
G1 X165.508 Y81.538 E22.20606
G1 X165.548 Y82.016 E22.22839
G1 X165.57 Y82.368 E22.24482
G1 X165.588 Y82.778 E22.26393
G1 X165.597 Y83.158 E22.28163
G1 X165.6 Y83.409 E22.29331
G1 X165.599 Y136.443 E24.7628
G1 X165.589 Y137.149 E24.79568
G1 X165.579 Y137.491 E24.81161
G1 X165.573 Y137.62 E24.81762
G1 X165.54 Y138.093 E24.8397
G1 X165.509 Y138.432 E24.85555
G1 X165.334 Y139.612 E24.9111
G1 X165.303 Y139.762 E24.91823
G1 X165.182 Y140.279 E24.94296
G1 X165.1 Y140.595 E24.95816
G1 X164.758 Y141.673 E25.01082
G1 X164.712 Y141.795 E25.01689
G1 X164.526 Y142.257 E25.04008
G1 X164.39 Y142.572 E25.05606
G1 X163.846 Y143.655 E25.11249
G1 X163.781 Y143.768 E25.11856
G1 X163.534 Y144.176 E25.14077
G1 X163.364 Y144.443 E25.15551
G1 X162.695 Y145.379 E25.20908
G1 X162.578 Y145.525 E25.21779
G1 X162.279 Y145.882 E25.23948
G1 X162.095 Y146.092 E25.25248
G1 X161.288 Y146.917 E25.30621
G1 X161.167 Y147.028 E25.31386
G1 X160.752 Y147.389 E25.33947
G1 X160.499 Y147.598 E25.35475
G1 X159.538 Y148.305 E25.41031
G1 X159.423 Y148.38 E25.4167
G1 X159.015 Y148.633 E25.43905
G1 X158.735 Y148.798 E25.45419
G1 X157.734 Y149.318 E25.50671
G1 X157.593 Y149.382 E25.51392
G1 X157.09 Y149.595 E25.53936
G1 X156.8 Y149.709 E25.55387
G1 X155.705 Y150.072 E25.60758
G1 X155.558 Y150.112 E25.61468
G1 X155.117 Y150.222 E25.63584
G1 X154.808 Y150.292 E25.65059
G1 X153.619 Y150.491 E25.70673
G1 X153.491 Y150.505 E25.71273
G1 X153.005 Y150.547 E25.73544
G1 X152.656 Y150.569 E25.75172
G1 X152.271 Y150.587 E25.76967
G1 X151.976 Y150.594 E25.78341
G1 X151.404 Y150.6 E25.81005
G1 X68.557 Y150.599 E29.66775
G1 X67.851 Y150.589 E29.70063
G1 X67.509 Y150.579 E29.71656
G1 X67.38 Y150.573 E29.72257
G1 X66.907 Y150.54 E29.74465
G1 X66.568 Y150.509 E29.7605
G1 X65.363 Y150.328 E29.81724
G1 X65.21 Y150.296 E29.82452
G1 X64.724 Y150.183 E29.84775
G1 X64.411 Y150.102 E29.86281
G1 X63.328 Y149.759 E29.91571
G1 X63.198 Y149.71 E29.92217
G1 X62.72 Y149.516 E29.9462
G1 X62.411 Y149.382 E29.96188
G1 X61.307 Y148.825 E30.01946
G1 X61.195 Y148.76 E30.02549
G1 X60.844 Y148.547 E30.04461
G1 X60.574 Y148.376 E30.05949
G1 X59.631 Y147.704 E30.11341
G1 X59.487 Y147.589 E30.12199
G1 X59.057 Y147.227 E30.14816
G1 X58.84 Y147.034 E30.16168
G1 X58.051 Y146.254 E30.21334
G1 X57.948 Y146.141 E30.22046
G1 X57.597 Y145.735 E30.24545
G1 X57.388 Y145.481 E30.26077
G1 X56.685 Y144.523 E30.3161
G1 X56.607 Y144.403 E30.32277
G1 X56.365 Y144.011 E30.34422
G1 X56.204 Y143.738 E30.35898
G1 X55.682 Y142.734 E30.41167
G1 X55.618 Y142.593 E30.41888
G1 X55.405 Y142.09 E30.44431
G1 X55.291 Y141.8 E30.45882
G1 X54.928 Y140.705 E30.51254
G1 X54.888 Y140.558 E30.51963
G1 X54.778 Y140.117 E30.5408
G1 X54.708 Y139.808 E30.55555
G1 X54.504 Y138.572 E30.61388
G1 X54.489 Y138.429 E30.62058
G1 X54.452 Y137.982 E30.64146
G1 X54.43 Y137.629 E30.65793
G1 X54.416 Y137.356 E30.67066
G1 X54.409 Y137.164 E30.67961
G1 X54.402 Y136.867 E30.69344
G1 X54.4 Y136.63 E30.70448
G1 X54.401 Y83.557 E33.17578
G1 X54.411 Y82.85 E33.2087
G1 X54.428 Y82.376 E33.23079
G1 X54.46 Y81.91 E33.25254
G1 X54.491 Y81.57 E33.26843
G1 X54.678 Y80.332 E33.32673
G1 X54.713 Y80.167 E33.33459
G1 X54.823 Y79.7 E33.35693
G1 X54.901 Y79.4 E33.37136
G1 X55.241 Y78.328 E33.42373
G1 X55.29 Y78.198 E33.4302
G1 X55.483 Y77.723 E33.45407
G1 X55.616 Y77.416 E33.46965
G1 X56.154 Y76.345 E33.52546
G1 X56.219 Y76.232 E33.53153
G1 X56.466 Y75.824 E33.55374
G1 X56.636 Y75.557 E33.56848
G1 X57.305 Y74.621 E33.62205
G1 X57.422 Y74.475 E33.63076
G1 X57.737 Y74.101 E33.65353
G1 X57.928 Y73.884 E33.66699
G1 X58.755 Y73.044 E33.72188
G1 X58.876 Y72.934 E33.7295
G1 X59.272 Y72.591 E33.75389
G1 X59.52 Y72.387 E33.76884
G0 F6000 X59.774 Y72.696
G1 F1200 X60.666 Y72.04 E33.8204
G1 X60.779 Y71.966 E33.82669
G1 X61.17 Y71.722 E33.84815
G1 X61.447 Y71.558 E33.86314
G1 X62.448 Y71.038 E33.91567
G1 X62.592 Y70.973 E33.92302
G1 X63.056 Y70.777 E33.94648
G1 X63.346 Y70.663 E33.96099
G1 X64.4 Y70.314 E34.01269
G1 X64.547 Y70.274 E34.01978
G1 X64.971 Y70.168 E34.04013
G1 X65.28 Y70.098 E34.05488
G1 X66.425 Y69.906 E34.10894
G1 X66.553 Y69.892 E34.11494
G1 X67.02 Y69.852 E34.13676
G1 X67.369 Y69.83 E34.15305
G1 X67.745 Y69.813 E34.17057
G1 X68.028 Y69.806 E34.18376
G1 X68.596 Y69.8 E34.21021
G1 X151.293 Y69.8 E38.06092
G1 X152.143 Y69.811 E38.10051
G1 X152.473 Y69.821 E38.11588
G1 X152.602 Y69.827 E38.12189
G1 X153.049 Y69.858 E38.14276
G1 X153.391 Y69.889 E38.15875
G1 X154.575 Y70.067 E38.2145
G1 X154.722 Y70.098 E38.2215
G1 X155.179 Y70.205 E38.24335
G1 X155.495 Y70.287 E38.25855
G1 X156.531 Y70.615 E38.30915
G1 X156.661 Y70.664 E38.31562
G1 X157.118 Y70.85 E38.3386
G1 X157.425 Y70.983 E38.35418
G1 X158.484 Y71.517 E38.4094
G1 X158.591 Y71.579 E38.41516
G1 X158.937 Y71.788 E38.43398
G1 X159.21 Y71.961 E38.44903
G1 X160.129 Y72.617 E38.50161
G1 X160.275 Y72.734 E38.51032
G1 X160.62 Y73.024 E38.53131
G1 X160.831 Y73.209 E38.54437
G1 X161.631 Y73.992 E38.5965
G1 X161.739 Y74.11 E38.60395
G1 X162.083 Y74.506 E38.62837
G1 X162.295 Y74.763 E38.64388
G1 X162.952 Y75.654 E38.69543
G1 X163.019 Y75.756 E38.70112
G1 X163.265 Y76.149 E38.7227
G1 X163.436 Y76.437 E38.7383
G1 X163.962 Y77.448 E38.79137
G1 X164.027 Y77.592 E38.79872
G1 X164.223 Y78.056 E38.82218
G1 X164.337 Y78.346 E38.83669
G1 X164.686 Y79.4 E38.88839
G1 X164.726 Y79.547 E38.89548
G1 X164.831 Y79.967 E38.91564
G1 X164.9 Y80.271 E38.93016
G1 X165.094 Y81.433 E38.98501
G1 X165.11 Y81.581 E38.99194
G1 X165.149 Y82.041 E39.01344
G1 X165.171 Y82.393 E39.02986
G1 X165.188 Y82.787 E39.04823
G1 X165.197 Y83.167 E39.06593
G1 X165.2 Y83.409 E39.07719
G1 X165.199 Y136.437 E41.5464
G1 X165.189 Y137.143 E41.57928
G1 X165.179 Y137.473 E41.59465
G1 X165.173 Y137.602 E41.60066
G1 X165.142 Y138.057 E41.6219
G1 X165.111 Y138.396 E41.63775
G1 X164.942 Y139.531 E41.69118
G1 X164.911 Y139.681 E41.69832
G1 X164.795 Y140.179 E41.72213
G1 X164.713 Y140.495 E41.73733
G1 X164.384 Y141.532 E41.78799
G1 X164.338 Y141.654 E41.79406
G1 X164.158 Y142.098 E41.81637
G1 X164.022 Y142.413 E41.83234
G1 X163.5 Y143.456 E41.88665
G1 X163.435 Y143.569 E41.89272
G1 X163.197 Y143.961 E41.91408
G1 X163.027 Y144.228 E41.92882
G1 X162.383 Y145.129 E41.98039
G1 X162.266 Y145.275 E41.9891
G1 X161.978 Y145.618 E42.00995
G1 X161.794 Y145.828 E42.02295
G1 X161.017 Y146.622 E42.07468
G1 X160.896 Y146.733 E42.08233
G1 X160.497 Y147.081 E42.10698
G1 X160.244 Y147.29 E42.12226
G1 X159.32 Y147.97 E42.17568
G1 X159.205 Y148.045 E42.18208
G1 X158.811 Y148.289 E42.20366
G1 X158.531 Y148.454 E42.21879
G1 X157.569 Y148.954 E42.26927
G1 X157.428 Y149.018 E42.27648
G1 X156.944 Y149.223 E42.30096
G1 X156.654 Y149.337 E42.31547
G1 X155.6 Y149.686 E42.36717
G1 X155.453 Y149.726 E42.37426
G1 X155.029 Y149.832 E42.39461
G1 X154.72 Y149.902 E42.40936
G1 X153.575 Y150.094 E42.46342
G1 X153.447 Y150.108 E42.46942
G1 X152.98 Y150.148 E42.49125
G1 X152.631 Y150.17 E42.50753
G1 X152.255 Y150.187 E42.52505
G1 X151.972 Y150.194 E42.53824
G1 X151.404 Y150.2 E42.56469
G1 X68.563 Y150.199 E46.42211
G1 X67.857 Y150.189 E46.45499
G1 X67.527 Y150.179 E46.47036
G1 X67.398 Y150.173 E46.47637
G1 X66.943 Y150.142 E46.49761
G1 X66.604 Y150.111 E46.51346
G1 X65.445 Y149.937 E46.56803
G1 X65.292 Y149.905 E46.57531
G1 X64.825 Y149.796 E46.59764
G1 X64.512 Y149.715 E46.6127
G1 X63.469 Y149.385 E46.66364
G1 X63.339 Y149.336 E46.67011
G1 X62.879 Y149.149 E46.69323
G1 X62.57 Y149.015 E46.70891
G1 X61.508 Y148.479 E46.7643
G1 X61.396 Y148.414 E46.77033
G1 X61.058 Y148.209 E46.78874
G1 X60.788 Y148.038 E46.80362
G1 X59.881 Y147.391 E46.8555
G1 X59.737 Y147.276 E46.86408
G1 X59.323 Y146.928 E46.88926
G1 X59.106 Y146.735 E46.90279
G1 X58.347 Y145.984 E46.95251
